!!!!SEGMENT: pl-sa--131-a-iii-31--001-002_luna-georgius--vesperae-confitebor.krn
!!!cenid: 17xx:490
!!!COM: Luna, Georgius
!!!COM-rismID: pe41010079
!!!CDT:
!!!CNT:
!!!OPR: Vesperae
!!!OTL: Confitebor
!!!OMV: 002
!!!PDT:
!!!AGN: Sacred; Vespers
!!!YEC: Copyright 2022 Narodowy Instytut Fryderyka Chopina (https://polishscores.org)
!!!YEM: License CC-BY-4.0 (https://creativecommons.org/licenses/by/4.0)
!!!SMS-siglum: PL-SA
!!!SMS-shelfmark: 131/A III 31
!!!SMS-shelfwork: 001-002 M
!!!SMS-variant:
!!!SMS-altvar:
!!!NIFC-rismSourceID: 1001070694
!!!NIFC-rismChildID: 1001070694
!!!NIFC-islandoraID: none
!!!URL-pdf-islandora:
!!!URL-scan: https://bc.bdsandomierz.pl/dlibra/publication/1488/edition/1456/content @EN{Scan in the Sandomierz Diocese Digital Library} @PL{Skany w portalu Cyfrowa Biblioteka Diecezjalna w Sandomierzu}
!!!IIIF:
!!!ONB-nifc: UWAGA: części Vesperae: Dixit Dominus, Confitebor, Beatus vir, Laudate pueri, Laudate Dominum, Magnificat
!!!AIN: 2 empty 1 tenor 2 tromp 2 violn 1 vox
!!!key:
**kern	**kern	**dynam	**kern	**dynam	**kern	**text	**kern	**text	**kern	**text	**kern	**kern
*part8	*part7	*	*part6	*	*part5	*	*part4	*	*part3	*	*part2	*part1
*staff8	*staff7	*	*staff6	*	*staff5	*	*staff4	*	*staff3	*	*staff2	*staff1
*Iempty	*Ivioln	*	*Ivioln	*	*Iempty	*	*Itenor	*	*Ivox	*	*Itromp	*Itromp
*I"Fundamento	*I"Violino Secundo	*	*I"Violino Primo	*	*I"Baſso	*	*I"Tenore	*	*I"Canto	*	*I"Tromba Secunda ex C	*I"Tromba Prima ex C
*I'bc	*I'vl II	*	*I'vl I	*	*I'B	*	*I'T	*	*I'C	*	*I'tr II	*I'tr I
*clefF4	*clefG2	*	*clefG2	*	*clefF4	*	*clefC4	*	*clefC1	*	*clefG2	*clefG2
*k[]	*k[]	*	*k[]	*	*k[]	*	*k[]	*	*k[]	*	*k[]	*k[]
*C:	*C:	*	*C:	*	*C:	*	*C:	*	*C:	*	*C:	*C:
*M3/8	*M3/8	*	*M3/8	*	*M3/8	*	*M3/8	*	*M3/8	*	*M3/8	*M3/8
=1	=1	=1	=1	=1	=1	=1	=1	=1	=1	=1	=1	=1
!LO:TX:a:t=nieprzerobione pauzy	!LO:TX:a:t=nieprzerobione pauzy	!	!LO:TX:a:t=nieprzerobione pauzy	!	!LO:TX:a:t=nieprzerobione pauzy	!	!LO:TX:a:t=nieprzerobione pauzy	!	!LO:TX:a:t=nieprzerobione pauzy	!	!LO:TX:a:t=nieprzerobione pauzy	!LO:TX:a:t=nieprzerobione pauzy
!LO:TX:a:t=P:problem=mixed beam	!	!	!LO:SIC:o=:v:oznaczenie tempa "Allo" z ogonkiem	!	!LO:SIC:o=:v:oznaczenie tempa "Allo" z ogonkiem	!	!LO:SIC:o=:v:oznaczenie tempa "Allo" z ogonkiem	!	!	!	!LO:SIC:o=:v:oznaczenie tempa "Allo" z ogonkiem	!LO:SIC:o=:v:oznaczenie tempa "Allo" z ogonkiem
!LO:TX:a:B:t=Allo	!LO:SIC:o=:v:brak oznaczenia tempa	!	!LO:TX:a:B:t=Allo	!	!LO:TX:a:B:t=allo	!	!LO:TX:a:B:t=Allo	!	!LO:SIC:o=:v:niejednoznaczny zapis rytmu w tt. 1-2	!	!LO:TX:a:B:t=Allo	!LO:TX:a:B:t=Allo
8C/L	4.r	.	4.r	.	4.r	.	4.r	.	8cc\	Con-	4.r	4.r
!LO:SIC:o=:v:oznaczenie tempa "Allo" z ogonkiem	!	!	!	!	!	!	!	!	!	!	!	!
8c\	.	.	.	.	.	.	.	.	4cc\	-fi-	.	.
8B\J	.	.	.	.	.	.	.	.	.	.	.	.
=2	=2	=2	=2	=2	=2	=2	=2	=2	=2	=2	=2	=2
8A\L	4.r	.	4.r	.	4.r	.	4.r	.	8cc\	-te-	4.r	4.r
16G\L	.	.	.	.	.	.	.	.	4cc\	-bor	.	.
16F\J	.	.	.	.	.	.	.	.	.	.	.	.
8E\J	.	.	.	.	.	.	.	.	.	.	.	.
=3	=3	=3	=3	=3	=3	=3	=3	=3	=3	=3	=3	=3
8D/L	4.r	.	4.r	.	4.r	.	4.r	.	8ff\	ti-	4.r	4.r
8BB/	.	.	.	.	.	.	.	.	4ff\	-bi	.	.
8GG/J	.	.	.	.	.	.	.	.	.	.	.	.
=4	=4	=4	=4	=4	=4	=4	=4	=4	=4	=4	=4	=4
8C/L	4.r	.	4.r	.	4.r	.	4.r	.	16ee\	Do-	4.r	4.r
.	.	.	.	.	.	.	.	.	16dd\	-mi-	.	.
.	.	.	.	.	.	.	.	.	8qqdd/	.	.	.
8D/	.	.	.	.	.	.	.	.	4cc\	-ne	.	.
8E/J	.	.	.	.	.	.	.	.	.	.	.	.
=5	=5	=5	=5	=5	=5	=5	=5	=5	=5	=5	=5	=5
8D/L	4.r	.	4.r	.	4.r	.	4.r	.	8ff\	ti-	4.r	4.r
8BB/	.	.	.	.	.	.	.	.	4ff\	-bi	.	.
8GG/J	.	.	.	.	.	.	.	.	.	.	.	.
=6	=6	=6	=6	=6	=6	=6	=6	=6	=6	=6	=6	=6
8C/L	4.r	.	4.r	.	4.r	.	4.r	.	16ee\	Do-	4.r	4.r
.	.	.	.	.	.	.	.	.	16dd\	-mi-	.	.
.	.	.	.	.	.	.	.	.	8qqdd/	.	.	.
8D/	.	.	.	.	.	.	.	.	4cc\	-ne	.	.
8E/J	.	.	.	.	.	.	.	.	.	.	.	.
=7	=7	=7	=7	=7	=7	=7	=7	=7	=7	=7	=7	=7
8C/L	4.r	.	4.r	.	4.r	.	4.r	.	8ee\	in	4.r	4.r
8AA/	.	.	.	.	.	.	.	.	8ee\	to-	.	.
8D/J	.	.	.	.	.	.	.	.	8ff#X\	-to	.	.
=8	=8	=8	=8	=8	=8	=8	=8	=8	=8	=8	=8	=8
8GG/L	4.r	.	4.r	.	4.r	.	4.r	.	8gg\L	Cor-	4.r	4.r
8AA/	.	.	.	.	.	.	.	.	16ff#X\L	.	.	.
.	.	.	.	.	.	.	.	.	16ee\JJ	.	.	.
8BB/J	.	.	.	.	.	.	.	.	16dd\LL	-de	.	.
.	.	.	.	.	.	.	.	.	16cc\JJ	.	.	.
=9	=9	=9	=9	=9	=9	=9	=9	=9	=9	=9	=9	=9
8C/L	4.r	.	4.r	.	4.r	.	4.r	.	24b\LL	me-	4.r	4.r
.	.	.	.	.	.	.	.	.	24a\	.	.	.
.	.	.	.	.	.	.	.	.	24g\JJ	.	.	.
!	!	!	!	!	!	!	!	!	!LO:SIC:o=:v:ozdobnik t [przyjęto trillo]&colon;global	!	!	!
!	!	!	!	!	!	!	!	!	!LO:TX:a:B:t=t	!	!	!
8D/	.	.	.	.	.	.	.	.	4a\	.	.	.
8DD/J	.	.	.	.	.	.	.	.	.	.	.	.
=10	=10	=10	=10	=10	=10	=10	=10	=10	=10	=10	=10	=10
!LO:TX:a:t=P:problem=mixed beam	!	!	!	!	!	!	!	!	!	!	!	!
.	.	.	.	.	.	.	.	.	8qqa/	.	.	.
16GG/LL	4.r	.	4.r	.	4.r	.	4.r	.	4g\	-o	4.r	4.r
16G\	.	.	.	.	.	.	.	.	.	.	.	.
16D\	.	.	.	.	.	.	.	.	.	.	.	.
16C\	.	.	.	.	.	.	.	.	.	.	.	.
16BB\	.	.	.	.	.	.	.	.	8r	.	.	.
16AA\JJ	.	.	.	.	.	.	.	.	.	.	.	.
=11	=11	=11	=11	=11	=11	=11	=11	=11	=11	=11	=11	=11
8GG/L	4.r	.	4.r	.	4.r	.	4.r	.	4dd\	in	4.r	4.r
8BB/	.	.	.	.	.	.	.	.	.	.	.	.
8C/J	.	.	.	.	.	.	.	.	8ee\	con-	.	.
=12	=12	=12	=12	=12	=12	=12	=12	=12	=12	=12	=12	=12
8GG/L	4.r	.	4.r	.	4.r	.	4.r	.	8.dd\	-si-	4.r	4.r
8BB/	.	.	.	.	.	.	.	.	.	.	.	.
.	.	.	.	.	.	.	.	.	16dd\	-li-	.	.
8C/J	.	.	.	.	.	.	.	.	8ee\	-o	.	.
=13	=13	=13	=13	=13	=13	=13	=13	=13	=13	=13	=13	=13
8D/L	4.r	.	4.r	.	4.r	.	4.r	.	(4ffn\	juſ-	4.r	4.r
8BB/	.	.	.	.	.	.	.	.	.	.	.	.
8C/J	.	.	.	.	.	.	.	.	8ee\)	.	.	.
=14	=14	=14	=14	=14	=14	=14	=14	=14	=14	=14	=14	=14
!LO:TX:a:t=P:problem=mixed beam	!	!	!	!	!	!	!	!	!LO:TX:a:B:t=t	!	!	!
8GG/L	4.r	.	4.r	.	4.r	.	4.r	.	8ee\	-to-	4.r	4.r
8G\	.	.	.	.	.	.	.	.	4dd\	-rum	.	.
8F\J	.	.	.	.	.	.	.	.	.	.	.	.
!	!	!	!	!	!	!	!	!	!LO:LB:g=original	!	!	!
=15	=15	=15	=15	=15	=15	=15	=15	=15	=15	=15	=15	=15
4E\	4.r	.	4.r	.	4.r	.	4.r	.	8cc\	et	4.r	4.r
.	.	.	.	.	.	.	.	.	8cc\	con-	.	.
8E\	.	.	.	.	.	.	.	.	8cc\	-gre-	.	.
=16	=16	=16	=16	=16	=16	=16	=16	=16	=16	=16	=16	=16
4F\	4.r	.	4.r	.	4.r	.	4.r	.	8dd\L	-ga-	4.r	4.r
.	.	.	.	.	.	.	.	.	16cc\L	.	.	.
.	.	.	.	.	.	.	.	.	16b\J	.	.	.
8E\	.	.	.	.	.	.	.	.	8cc\J	.	.	.
=17	=17	=17	=17	=17	=17	=17	=17	=17	=17	=17	=17	=17
!LO:TX:a:t=P:problem=mixed beam	!	!	!	!	!	!	!	!	!	!	!	!
8F\L	4.r	.	4.r	.	4.r	.	4.r	.	8dd\	-ti-	4.r	4.r
.	.	.	.	.	.	.	.	.	8qqcc/	.	.	.
8G\	.	.	.	.	.	.	.	.	4b\	-o-	.	.
8GG/J	.	.	.	.	.	.	.	.	.	.	.	.
!LO:LB:g=original	!	!	!	!	!	!	!	!	!	!	!	!
=18	=18	=18	=18	=18	=18	=18	=18	=18	=18	=18	=18	=18
!	!	!	!	!	!	!	!	!	!LO:SIC:o=:v:prawdopodobnie przednutka 8qb	!	!	!
8C/L	4.r	.	4.r	.	4.r	.	4.r	.	4cc\	-ne	4.r	4.r
8GG/	.	.	.	.	.	.	.	.	.	.	.	.
8C/J	.	.	.	.	.	.	.	.	8r	.	.	.
=19	=19	=19	=19	=19	=19	=19	=19	=19	=19	=19	=19	=19
!LO:TX:a:t=P:problem=mixed beam	!	!	!	!	!	!	!	!	!	!	!	!
!LO:TX:a:i:t=Tutti	!LO:TX:a:t=P:problem=mixed beam	!	!	!	!	!	!	!	!	!	!	!
8C/L	8e/L	.	8cc\	.	8r	.	8e\	Ma-	8cc\	Ma-	4cc\	4ee\
8c\	8ee\	.	4cc\	.	8c\	Ma-	8e\L	-gna	4cc\	-gna	.	.
8B\J	8dd\J	.	.	.	8B\	-gna	8d\J	.	.	.	8r	8r
=20	=20	=20	=20	=20	=20	=20	=20	=20	=20	=20	=20	=20
8A\L	8cc\L	.	8cc\	.	8A\	o-	8c\	o-	8cc\	o-	4cc\	4ee\
16G\L	16b\L	.	4cc\	.	16G\LL	-pe-	16B\LL	-pe-	8cc\	-pe-	.	.
16F\J	16a\J	.	.	.	16F\JJ	.	16A\JJ	.	.	.	.	.
8E\J	8g\J	.	.	.	8E\	-ra	8G\	-ra	8cc\	-ra	8r	8r
=21	=21	=21	=21	=21	=21	=21	=21	=21	=21	=21	=21	=21
8D/L	8b\	.	8ff\	.	8D/	o-	8B\	o-	8ff\	o-	8dd\L	8ff\L
8BB/	4dd\	.	4ff\	.	8BB/	-pe-	8d\	-pe-	8ff\	-pe-	8dd\	8ff\
8GG/J	.	.	.	.	8GG/	-ra	8d\	-ra	8ff\	-ra	8dd\J	8ff\J
=22	=22	=22	=22	=22	=22	=22	=22	=22	=22	=22	=22	=22
8C\L	16g/LL	.	16ee\LL	.	8C\	Do-	16G/	Do-	16ee\	Do-	4cc\	4ee\
.	16f/JJ	.	16dd\JJ	.	.	.	16F/	-mi-	16dd\	-mi-	.	.
.	8qqf/	.	8qqdd/	.	.	.	8qqF/	.	8qqdd/	.	.	.
8D\	4e/	.	4cc\	.	8D\	-mi-	4E/	-ni	4cc\	-ni	.	.
8E\J	.	.	.	.	8E\	-ni	.	.	.	.	8r	8r
=23	=23	=23	=23	=23	=23	=23	=23	=23	=23	=23	=23	=23
8D/L	8b\	.	8ff\	.	8D/	o-	8B\	o-	8ff\	o-	8dd\L	8ff\L
8BB/	4dd\	.	4ff\	.	8BB/	-pe-	8d\	-pe-	8ff\	-pe-	8dd\	8ff\
8GG/J	.	.	.	.	8GG/	-ra	8d\	-ra	8ff\	-ra	8dd\J	8ff\J
=24	=24	=24	=24	=24	=24	=24	=24	=24	=24	=24	=24	=24
8C/L	(16g/LL	.	16ee\LL	.	8C\	Do-	16G/	Do-	16ee\	Do-	4cc\	4ee\
.	16f/JJ)	.	16dd\JJ	.	.	.	16F/	-mi-	16dd\	-mi-	.	.
.	8qqf/	.	8qqdd/	.	.	.	8qqF/	.	8qqdd/	.	.	.
8D/	4e/	.	4cc\	.	8D\	-mi-	4E/	-ni	4cc\	-ni	.	.
8E/J	.	.	.	.	8E\	-ni	.	.	.	.	8r	8r
=25	=25	=25	=25	=25	=25	=25	=25	=25	=25	=25	=25	=25
!LO:SIC:o=:v:brak t. 25	!	!	!	!	!	!	!	!	!	!	!	!
4.ryy	8ee\L	.	4ccc\	.	8c\L	ex-	4c\	ex-	4ee\	ex-	4cc\	4ee\
.	8g\	.	.	.	8E\J	.	.	.	.	.	.	.
.	8dd\J	.	8bb\	.	8G\	-qui-	8B\	-qui-	8dd\	-qui-	8g\	8dd\
=26	=26	=26	=26	=26	=26	=26	=26	=26	=26	=26	=26	=26
8C\L	8ee\L	.	4ccc\	.	8c\	-si-	8c\	-si-	8ee\	-si-	4cc\	4ee\
8E\	8g\	.	.	.	8E\	-ta	8c\	-ta	8ee\	-ta	.	.
8G\J	8dd\J	.	8bb\	.	8G\	in	8B\	in	8dd\	in	8g\	8dd\
=27	=27	=27	=27	=27	=27	=27	=27	=27	=27	=27	=27	=27
8C/L	8ee\L	.	8ccc\L	.	8c\L	om-	8c\L	om-	8ee\L	om-	8cc\L	8ee\L
8BB/	8dd\	.	8ff\	.	8B\	.	8d\	.	8ff\	.	8dd\	8ff\
8C/J	8cc\J	.	8ee\J	.	8c\J	.	8c\J	.	8ee\J	.	8cc\J	8ee\J
=28	=28	=28	=28	=28	=28	=28	=28	=28	=28	=28	=28	=28
!	!LO:SIC:o=:v:ozdobnik t [przyjęto trillo]&colon;global	!	!LO:TX:a:B:t=t	!	!	!	!	!	!	!	!	!
!LO:TX:a:t=P:problem=mixed beam	!LO:TX:a:B:t=t	!	!LO:SIC:o=:v:ozdobnik t [przyjęto trillo]&colon;global	!	!	!	!	!	!	!	!	!
8G\L	8cc\L	.	8ee\L	.	8G\	.	8c\	.	8ee\	.	8cc\L	8ee\L
8GG/	8b\J	.	8dd\J	.	8GG/	-neſ	8B\	-neſ	8dd\	-neſ	8g\J	8dd\J
8BB/J	8r	.	8r	.	8r	.	8r	.	8r	.	8r	8r
!	!	!	!	!	!LO:LB:g=original	!	!LO:LB:g=original	!	!LO:PB:g=original	!	!	!
=29	=29	=29	=29	=29	=29	=29	=29	=29	=29	=29	=29	=29
8C/L	8g\L	.	16ee\LL	.	8C/L	vo-	8G\L	vo-	4ee\	vo-	8cc\L	8ee\L
.	.	.	16gg\JJ	.	.	.	.	.	.	.	.	.
.	.	.	8qqgg/	.	.	.	.	.	.	.	.	.
8AA/	8cc\	.	4ff#X\	.	8AA/J	.	8c\J	.	.	.	16dd\L	16dd\L
.	.	.	.	.	.	.	.	.	.	.	16dd\	16dd\
8D/J	8a\J	.	.	.	8D\	-lun-	8A\	-lun-	8ff#X\	-lun-	16dd\	16dd\
.	.	.	.	.	.	.	.	.	.	.	16dd\JJ	16dd\JJ
=30	=30	=30	=30	=30	=30	=30	=30	=30	=30	=30	=30	=30
8GG/L	16b\LL	.	8gg\L	.	8G\L	-ta-	8B\L	-ta-	8gg\L	-ta-	4g/	4dd\
.	16gg\	.	.	.	.	.	.	.	.	.	.	.
8AA/	16ff#X\	.	16ff#X\L	.	8A\J	.	16d\L	.	16ff#X\L	.	.	.
.	16ee\	.	16ee\	.	.	.	16c\JJ	.	16ee\JJ	.	.	.
8BB/J	16dd\	.	16dd\	.	8B\	-tes	16B\LL	-tes	16dd\LL	-tes	8r	8r
.	16cc\JJ	.	16cc\JJ	.	.	.	16A\JJ	.	16cc\JJ	.	.	.
=31	=31	=31	=31	=31	=31	=31	=31	=31	=31	=31	=31	=31
*	*	*	*Xtuplet	*	*	*	*	*	*	*	*	*
!	!LO:SIC:o=:v:klamra łukowa bez numeru	!	!	!	!	!	!	!	!	!	!	!
!	!LO:TUP:b	!	!	!	!	!	!	!	!	!	!	!
8C/L	24b/LL	.	24b/LL	.	8c\L	e-	8G/	e-	8b\	e-	8r	8r
.	24a/	.	24a/	.	.	.	.	.	.	.	.	.
.	24g/JJ	.	24g/JJ	.	.	.	.	.	.	.	.	.
!	!LO:TX:a:B:t=t	!	!LO:TX:a:B:t=t	!	!	!	!	!	!LO:TX:a:B:t=t	!	!	!
8D/	4a/	.	4a/	.	8d\	.	4F#X/	.	4a\	.	8dd\L	8dd\L
8DD/J	.	.	.	.	8D\J	.	.	.	.	.	16dd\L	16dd\L
.	.	.	.	.	.	.	.	.	.	.	16dd\JJ	16dd\JJ
=32	=32	=32	=32	=32	=32	=32	=32	=32	=32	=32	=32	=32
4GG/	8g/L	.	8g/L	.	4G\	-jus	4G/	-juſ	4g\	-jus	4g/	4dd\
.	8d/	.	8d/	.	.	.	.	.	.	.	.	.
8r	8G/J	.	8G/J	.	8r	.	8r	.	8r	.	8r	8r
=33	=33	=33	=33	=33	=33	=33	=33	=33	=33	=33	=33	=33
!	!	!	!LO:SIC:o=:v:p = pia&colon;global	!LO:DY:a	!	!	!LO:TX:a:i:t=Solo	!	!	!	!	!
!	!	!	!	!	!	!	!	!	!LO:N:vis=00	!	!	!
8G\L	8b\L	.	8dd\L	p	4.r	.	4.d\	con-	4.r	.	4.r	4.r
8G\	8b\	.	8dd\	.	.	.	.	.	.	.	.	.
8G\J	8b\J	.	8dd\J	.	.	.	.	.	.	.	.	.
=34	=34	=34	=34	=34	=34	=34	=34	=34	=34	=34	=34	=34
8G\L	8cc\L	.	8ee\L	.	4.r	.	8e\	-feſ-	4.r	.	4.r	4.r
8G\	(16a\L	.	16cc\L	.	.	.	16c\LL	-si-	.	.	.	.
.	16b\J)	.	16dd\J	.	.	.	16d\JJ	.	.	.	.	.
8G\J	8cc\J	.	8ee\J	.	.	.	8e\	-o	.	.	.	.
=35	=35	=35	=35	=35	=35	=35	=35	=35	=35	=35	=35	=35
8G\L	8cc\L	.	8ee\L	.	4.r	.	16e\	et	4.r	.	4.r	4.r
.	.	.	.	.	.	.	16e\	mag-	.	.	.	.
8G\	8cc\	.	8ee\	.	.	.	8g\	-ni-	.	.	.	.
8G\J	8cc\J	.	8ee\J	.	.	.	8e\	-fi-	.	.	.	.
!	!LO:LB:g=original	!	!LO:PB:g=original	!	!	!	!	!	!	!	!	!
=36	=36	=36	=36	=36	=36	=36	=36	=36	=36	=36	=36	=36
8G\L	8b\L	.	8dd\L	.	4.r	.	8d\	-cen-	4.r	.	4.r	4.r
8G\	(16g\L	.	(16b\L	.	.	.	16B\LL	-ti-	.	.	.	.
.	16a\J)	.	16cc\J)	.	.	.	16c\JJ	.	.	.	.	.
8G\J	8b\J	.	8dd\J	.	.	.	8d\	-a	.	.	.	.
=37	=37	=37	=37	=37	=37	=37	=37	=37	=37	=37	=37	=37
8D\L	8a/L	.	8cc\L	.	4.r	.	8c\	o-	4.r	.	4.r	4.r
8D\	8a/	.	8cc\	.	.	.	4c\	-puſ	.	.	.	.
8D\J	8a/J	.	8cc\J	.	.	.	.	.	.	.	.	.
=38	=38	=38	=38	=38	=38	=38	=38	=38	=38	=38	=38	=38
!LO:SIC:o=:v:partia urywa się w t. 37 [brak skanu]	!	!	!	!	!	!	!	!	!	!	!	!
4.ryy	16g/LL	.	16b/LL	.	4.r	.	16B\LL	e-	4.r	.	4.r	4.r
.	16f#X/J	.	16a/J	.	.	.	16A\JJ	.	.	.	.	.
.	8g/J	.	8g/J	.	.	.	8G/	-jus	.	.	.	.
.	8r	.	8r	.	.	.	8r	.	.	.	.	.
=39	=39	=39	=39	=39	=39	=39	=39	=39	=39	=39	=39	=39
4.ryy	4f#X/	.	4a/	.	4.r	.	4A\	et	4.r	.	4.r	4.r
.	8g/	.	8b/	.	.	.	8B\	juſ-	.	.	.	.
=40	=40	=40	=40	=40	=40	=40	=40	=40	=40	=40	=40	=40
4.ryy	8a/L	.	8cc\L	.	4.r	.	8c\	-ti-	4.r	.	4.r	4.r
.	16g/L	.	(16b\L	.	.	.	(16B\LL	-ti-	.	.	.	.
.	16f#X/J	.	16a\J)	.	.	.	16A\JJ)	.	.	.	.	.
.	8g/J	.	8b\J	.	.	.	8B\	-a	.	.	.	.
!	!	!	!	!	!	!	!LO:LB:g=original	!	!	!	!	!
=41	=41	=41	=41	=41	=41	=41	=41	=41	=41	=41	=41	=41
4.ryy	4b\	.	4dd\	.	4.r	.	4d\	e-	4.r	.	4.r	4.r
.	8cc\	.	8ee\	.	.	.	8e\	-juſ	.	.	.	.
=42	=42	=42	=42	=42	=42	=42	=42	=42	=42	=42	=42	=42
4.ryy	8dd\L	.	8ffn\L	.	4.r	.	8f\L	ma-	4.r	.	4.r	4.r
.	16cc\L	.	16ee\L	.	.	.	16e\L	.	.	.	.	.
.	16b\J	.	16dd\J	.	.	.	16d\JJ	.	.	.	.	.
.	8cc\J	.	8ee\J	.	.	.	8e\	-net	.	.	.	.
=43	=43	=43	=43	=43	=43	=43	=43	=43	=43	=43	=43	=43
4.ryy	4.r	.	4.r	.	4.r	.	8g\	in	4.r	.	4.r	4.r
.	.	.	.	.	.	.	8c\	ſae-	.	.	.	.
.	.	.	.	.	.	.	16d\	-cu-	.	.	.	.
.	.	.	.	.	.	.	16d\	-lum	.	.	.	.
=44	=44	=44	=44	=44	=44	=44	=44	=44	=44	=44	=44	=44
.	.	.	.	.	.	.	8qqc/	.	.	.	.	.
4.ryy	4.r	.	4.r	.	4.r	.	4B\	ſae-	4.r	.	4.r	4.r
.	.	.	.	.	.	.	8c\	.	.	.	.	.
=45	=45	=45	=45	=45	=45	=45	=45	=45	=45	=45	=45	=45
4.ryy	4.r	.	4.r	.	4.r	.	8d\	.	4.r	.	4.r	4.r
.	.	.	.	.	.	.	8qqc/	.	.	.	.	.
.	.	.	.	.	.	.	8.B\	.	.	.	.	.
.	.	.	.	.	.	.	16B\	-cu-	.	.	.	.
=46	=46	=46	=46	=46	=46	=46	=46	=46	=46	=46	=46	=46
.	.	.	.	.	.	.	8qqB/	.	.	.	.	.
4.ryy	4.r	.	4.r	.	4.r	.	4.c\	-li	4.r	.	4.r	4.r
=47	=47	=47	=47	=47	=47	=47	=47	=47	=47	=47	=47	=47
!	!	!	!	!	!	!	!LO:TX:a:i:t=Tutti	!	!LO:TX:a:i:t=Tutti	!	!	!
4.ryy	16g/LL	.	8ee\L	.	8C\	Me-	8G\	Me-	8ee\	Me-	4cc\	4ee\
.	16g/	.	.	.	.	.	.	.	.	.	.	.
.	16g/	.	8ccc\	.	16C\LL	-mo-	8G\	-mo-	8ee\	-mo-	.	.
.	16g/	.	.	.	16D\JJ	.	.	.	.	.	.	.
.	16g/	.	8ee\J	.	16E\	-ri-	16G\	-ri-	16ee\	-ri-	8r	8r
.	16g/JJ	.	.	.	16F\	-am	16G\	-am	16ee\	-am	.	.
=48	=48	=48	=48	=48	=48	=48	=48	=48	=48	=48	=48	=48
4.ryy	16g/LL	.	8dd\L	.	8G\	fe-	8G\	fe-	8dd\	fe-	4g/	4dd\
.	16g/	.	.	.	.	.	.	.	.	.	.	.
.	16g/	.	8bb\	.	16G\LL	-cit	4G\	-cit	4dd\	-cit	.	.
.	16g/	.	.	.	16A\	.	.	.	.	.	.	.
.	16g/	.	8dd\J	.	16B\	.	.	.	.	.	8r	8r
.	16g/JJ	.	.	.	16G\JJ	.	.	.	.	.	.	.
!	!	!	!	!	!	!	!	!	!	!	!LO:LB:g=original	!
=49	=49	=49	=49	=49	=49	=49	=49	=49	=49	=49	=49	=49
4.ryy	16e/LL	.	8cc\L	.	8A\	mi-	8E/	mi-	8cc\	mi-	4e/	4e/
.	16e/	.	.	.	.	.	.	.	.	.	.	.
.	16e/	.	8aa\	.	16A\LL	-ra-	4E/	-ra-	4cc\	-ra-	.	.
.	16e/	.	.	.	16B\	.	.	.	.	.	.	.
.	16e/	.	8cc\J	.	16c\	.	.	.	.	.	8r	8r
.	16e/JJ	.	.	.	16d\JJ	.	.	.	.	.	.	.
!	!	!	!	!	!	!	!	!	!	!	!	!LO:LB:g=original
=50	=50	=50	=50	=50	=50	=50	=50	=50	=50	=50	=50	=50
4.ryy	16e/LL	.	8b\L	.	8e\	-bi-	8E/	-bi-	8b\	-bi-	4e/	4e/
.	16e/	.	.	.	.	.	.	.	.	.	.	.
!	!	!	!LO:SIC:o=:v:niejednoznaczny zapis ♯	!	!	!	!	!	!	!	!	!
.	16e/	.	8gg#X\	.	16E\LL	-li-	8E/	-li-	8b\	-li-	.	.
.	16e/	.	.	.	16F#X\JJ	.	.	.	.	.	.	.
.	16e/	.	8b\J	.	16G#X\LL	-um	8E/	-um	8b\	-um	8r	8r
.	16e/JJ	.	.	.	16E\JJ	.	.	.	.	.	.	.
=51	=51	=51	=51	=51	=51	=51	=51	=51	=51	=51	=51	=51
!	!	!	!	!	!	!	!	!	!	!	!	!LO:SIC:o:s:t=:v:zgodnie z tr II
!	!	!	!	!	!	!	!	!	!	!	!	!LO:SIC:o=:v:takt wyblakły
4.ryy	16c/LL	.	8a\L	.	8Fn\L	su-	4.c\	su-	4.a\	su-	4cc\	4e/
.	16c/	.	.	.	.	.	.	.	.	.	.	.
.	16c/	.	8ffn\	.	16F\L	.	.	.	.	.	.	.
.	16c/	.	.	.	16Gn\	.	.	.	.	.	.	.
.	16c/	.	8a\J	.	16A\	.	.	.	.	.	8r	8r
.	16c/JJ	.	.	.	16B\JJ	.	.	.	.	.	.	.
=52	=52	=52	=52	=52	=52	=52	=52	=52	=52	=52	=52	=52
!	!	!	!LO:TX:a:t=P:problem=mixed beam	!	!LO:TX:a:t=P:problem=mixed beam	!	!	!	!	!	!	!
4.ryy	16c/LL	.	8gn/L	.	8c\L	-o-	4.c\	-o-	4.g\	-o-	4cc\	4cc\
.	16c/	.	.	.	.	.	.	.	.	.	.	.
!	!	!	!LO:SIC:o=:v:nieczytelny zapis [przyjęto 8ee]	!	!	!	!	!	!	!	!	!
.	16c/	.	8ee\	.	16C/L	.	.	.	.	.	.	.
.	16c/	.	.	.	16D/	.	.	.	.	.	.	.
.	16c/	.	8g/J	.	16E/	.	.	.	.	.	8r	8r
.	16c/JJ	.	.	.	16C/JJ	.	.	.	.	.	.	.
!	!	!	!	!	!LO:LB:g=original	!	!	!	!	!	!	!
=53	=53	=53	=53	=53	=53	=53	=53	=53	=53	=53	=53	=53
4.ryy	8b\L	.	8ff\	.	8D/L	.	4.d\	.	4.ff\	.	8dd\L	8ff\L
.	8dd\	.	4ff\	.	8BB/	.	.	.	.	.	16dd\L	16ff\L
.	.	.	.	.	.	.	.	.	.	.	16dd\	16ff\
.	8dd\J	.	.	.	8GG/J	.	.	.	.	.	16dd\	16ff\
.	.	.	.	.	.	.	.	.	.	.	16dd\JJ	16ff\JJ
!	!	!	!	!	!	!	!LO:LB:g=original	!	!	!	!	!
=54	=54	=54	=54	=54	=54	=54	=54	=54	=54	=54	=54	=54
.	8qqdd/	.	8qqff/	.	.	.	.	.	.	.	.	.
4.ryy	4cc\	.	4ee\	.	8C/	-rum	4c\	-rum	4ee\	-rum	4cc\	4ee\
.	.	.	.	.	8r	.	.	.	.	.	.	.
.	8dd\	.	8gg\	.	8G\	mi-	8G\	mi-	8dd\	mi-	8g\	8dd\
!	!LO:LB:g=original	!	!	!	!	!	!	!	!	!	!	!
=55	=55	=55	=55	=55	=55	=55	=55	=55	=55	=55	=55	=55
4.ryy	4ee\	.	4gg\	.	8c\	-se-	8G\	-se-	8ee\	-se-	4cc\	4ee\
.	.	.	.	.	8c\	-ri-	8G\	-ri-	8ee\	-ri-	.	.
.	8dd\	.	8gg\	.	8B\	-cors	8G\	-corſ	8dd\	-cors	8g\	8dd\
!	!	!	!	!	!	!	!	!	!LO:LB:g=original	!	!	!
=56	=56	=56	=56	=56	=56	=56	=56	=56	=56	=56	=56	=56
4.ryy	4ee\	.	4gg\	.	8c\	et	8G\	et	8ee\	et	4cc\	4ee\
.	.	.	.	.	8c\	mi-	8G\	mi-	8ee\	mi-	.	.
.	8dd\	.	8gg\	.	8B\	-se-	8G\	-se-	8dd\	-se-	8g\	8dd\
=57	=57	=57	=57	=57	=57	=57	=57	=57	=57	=57	=57	=57
4.ryy	8ee\L	.	8gg\L	.	4c\	-ra-	4G\	-ra-	4ee\	-ra-	8cc\L	8ee\L
.	16ee\L	.	16ccc\L	.	.	.	.	.	.	.	16cc\L	16ee\L
.	16ee\	.	16ccc\	.	.	.	.	.	.	.	16cc\	16ee\
.	16ee\	.	16ccc\	.	8C/	-tor	8c\	-tor	8ee\	-tor	16cc\	16ee\
.	16ee\JJ	.	16ccc\JJ	.	.	.	.	.	.	.	16cc\JJ	16ee\JJ
=58	=58	=58	=58	=58	=58	=58	=58	=58	=58	=58	=58	=58
4.ryy	8.dd\L	.	8.bb\L	.	8.G\	Do-	8.B\	Do-	8.dd\	Do-	8.g/L	8.dd\L
.	16dd\K	.	16bb\K	.	16G\	-mi-	16B\	-mi-	16dd\	-mi-	16g/K	16dd\K
.	8dd\J	.	8bb\J	.	8G\	-nuſ	8B\	-nuſ	8dd\	-nuſ	8g/J	8dd\J
!	!	!	!LO:LB:g=original	!	!	!	!	!	!	!	!	!
=59	=59	=59	=59	=59	=59	=59	=59	=59	=59	=59	=59	=59
4.ryy	8ee\L	.	8gg\L	.	8c\L	eſ-	8c\L	es-	8ee\L	es-	4cc\	4ee\
.	8dd\	.	8gg\	.	8B\J	.	8d\J	.	8dd\J	.	.	.
.	8ee\J	.	8ccc\J	.	8A\	-cam	8e\	-cam	8cc\	-cam	8r	8r
=60	=60	=60	=60	=60	=60	=60	=60	=60	=60	=60	=60	=60
.	8qqee/	.	8qqccc/	.	.	.	.	.	.	.	.	.
4.ryy	4dd\	.	4bb\	.	8G\L	de-	4d\	de-	4dd\	de-	8g\L	8dd\L
.	.	.	.	.	8F\J	.	.	.	.	.	8g\	8dd\
.	8ee\	.	8ccc\	.	8E\	-dit	8e\	-dit	8ee\	-dit	8cc\J	8ee\J
=61	=61	=61	=61	=61	=61	=61	=61	=61	=61	=61	=61	=61
4.ryy	8g\L	.	8ee\L	.	8C\	ti-	8c\	ti-	8ee\	ti-	8cc\L	8ee\L
.	8b\	.	8dd\	.	8G\	-men-	8B\	-men-	8dd\	-men-	8g\	8dd\
.	8dd\J	.	8bb\J	.	16GG/	-ti-	16B\	-ti-	16dd\	-ti-	8g\J	8dd\J
.	.	.	.	.	16GG/	-bus	16B\	-buſ	16dd\	-buſ	.	.
=62	=62	=62	=62	=62	=62	=62	=62	=62	=62	=62	=62	=62
.	.	.	8qqbb/	.	.	.	.	.	.	.	.	.
4.ryy	4ee\	.	4ccc\	.	4C/	se	4c\	se	4ee\	se	8cc\	8ee\
.	.	.	.	.	.	.	.	.	.	.	8r	8r
.	8ee\	.	8gg\	.	8r	.	8r	.	8r	.	8ee\	8gg\
=63	=63	=63	=63	=63	=63	=63	=63	=63	=63	=63	=63	=63
4.ryy	8cc\	.	4.aa\	.	4.r	.	4.r	.	4.r	.	4.ff\	4.aa\
.	4ee\	.	.	.	.	.	.	.	.	.	.	.
=64	=64	=64	=64	=64	=64	=64	=64	=64	=64	=64	=64	=64
4.ryy	8b\	.	4.gg\	.	4.r	.	4.r	.	4.r	.	4.ee\	4.gg\
.	4ee\	.	.	.	.	.	.	.	.	.	.	.
=65	=65	=65	=65	=65	=65	=65	=65	=65	=65	=65	=65	=65
4.ryy	8a\	.	4.ff\	.	4.r	.	4.r	.	4.r	.	4.dd\	4.ff\
.	4dd\	.	.	.	.	.	.	.	.	.	.	.
=66	=66	=66	=66	=66	=66	=66	=66	=66	=66	=66	=66	=66
4.ryy	16ee\LL	.	16ee\LL	.	4.r	.	4.r	.	4.r	.	4cc\	4ee\
.	16ccc\	.	16ccc\	.	.	.	.	.	.	.	.	.
.	16bb\	.	16bb\	.	.	.	.	.	.	.	.	.
.	16aa\	.	16aa\	.	.	.	.	.	.	.	.	.
.	16gg\	.	16gg\	.	.	.	.	.	.	.	8r	8r
.	16ff\JJ	.	16ff\JJ	.	.	.	.	.	.	.	.	.
=67	=67	=67	=67	=67	=67	=67	=67	=67	=67	=67	=67	=67
*	*Xtuplet	*	*	*	*	*	*	*	*	*	*	*
!	!	!	!LO:SIC:o=:v:klamra łukowa bez numeru	!	!	!	!	!	!	!	!	!
4.ryy	24ee\LL	.	24ee\LL	.	4.r	.	4.r	.	4.r	.	8r	8r
.	24dd\	.	24dd\	.	.	.	.	.	.	.	.	.
.	24cc\JJ	.	24cc\JJ	.	.	.	.	.	.	.	.	.
!	!LO:TX:a:B:t=t	!	!LO:TX:a:B:t=t	!	!	!	!	!	!	!	!	!
.	4dd\	.	4dd\	.	.	.	.	.	.	.	8g/L	8dd\L
.	.	.	.	.	.	.	.	.	.	.	16g/L	16dd\L
.	.	.	.	.	.	.	.	.	.	.	16g/JJ	16dd\JJ
!	!	!	!	!	!	!	!	!	!	!	!LO:LB:g=original	!
=68	=68	=68	=68	=68	=68	=68	=68	=68	=68	=68	=68	=68
4.ryy	4cc\	.	4cc\	.	4.r	.	4.r	.	4.r	.	4e/	4cc\
.	8r	.	8r	.	.	.	.	.	.	.	8r	8r
=69	=69	=69	=69	=69	=69	=69	=69	=69	=69	=69	=69	=69
4.ryy	8cc\L	.	8ee\L	.	4.r	.	4.r	.	8ee\	Me-	4.r	4.r
.	8cc\	.	8ee\	.	.	.	.	.	4ee\	-mor	.	.
.	8cc\J	.	8ee\J	.	.	.	.	.	.	.	.	.
=70	=70	=70	=70	=70	=70	=70	=70	=70	=70	=70	=70	=70
!	!	!	!LO:SIC:o:s=:v:=8ff	!	!	!	!	!	!	!	!	!
4.ryy	8dd\L	.	8ee\L	.	4.r	.	4.r	.	8ff\	e-	4.r	4.r
.	.	.	.	.	.	.	.	.	8qqff/	.	.	.
.	8cc\	.	8ee\	.	.	.	.	.	4ee\	-rit	.	.
.	8cc\J	.	8ee\J	.	.	.	.	.	.	.	.	.
=71	=71	=71	=71	=71	=71	=71	=71	=71	=71	=71	=71	=71
4.ryy	8cc\L	.	8ee\L	.	4.r	.	4.r	.	16aa\LL	in	4.r	4.r
.	.	.	.	.	.	.	.	.	16gg#X\JJ	.	.	.
.	8b\	.	8dd\	.	.	.	.	.	16bb\LL	ſae-	.	.
.	.	.	.	.	.	.	.	.	16gg#X\JJ	.	.	.
.	8b\J	.	8dd\J	.	.	.	.	.	16ee\	-cu-	.	.
.	.	.	.	.	.	.	.	.	16dd\	-lum	.	.
=72	=72	=72	=72	=72	=72	=72	=72	=72	=72	=72	=72	=72
4.ryy	16a/LL	.	(16cc\LL	.	4.r	.	4.r	.	16cc\	ſae-	4.r	4.r
.	16g#X/J	.	16b\J)	.	.	.	.	.	16b\	-cu-	.	.
.	8a/J	.	8a\J	.	.	.	.	.	8a\	-li	.	.
.	8r	.	8r	.	.	.	.	.	8r	.	.	.
=73	=73	=73	=73	=73	=73	=73	=73	=73	=73	=73	=73	=73
4.ryy	8r	.	8r	.	4.r	.	4.r	.	4cc\	te-	4.r	4.r
.	8a/L	.	8cc\L	.	.	.	.	.	.	.	.	.
.	8a/J	.	8cc\J	.	.	.	.	.	8cc\	-sta-	.	.
=74	=74	=74	=74	=74	=74	=74	=74	=74	=74	=74	=74	=74
4.ryy	8r	.	8r	.	4.r	.	4.r	.	4aa\	-men-	4.r	4.r
.	8a/L	.	8cc\L	.	.	.	.	.	.	.	.	.
.	8a/J	.	8cc\J	.	.	.	.	.	8cc\	-ti	.	.
!	!LO:LB:g=original	!	!	!	!	!	!	!	!	!	!	!
=75	=75	=75	=75	=75	=75	=75	=75	=75	=75	=75	=75	=75
!	!	!	!	!	!	!	!	!	!LO:SIC:o=:v:nieczytelny dźwięk [zgodnie z przednutką przyjęto 4.cc]	!	!	!
4.ryy	8r	.	8r	.	4.r	.	4.r	.	4.cc\	su-	4.r	4.r
.	8a/L	.	8cc\L	.	.	.	.	.	.	.	.	.
.	8a/J	.	8cc\J	.	.	.	.	.	.	.	.	.
!	!	!	!	!	!	!	!	!	!LO:LB:g=original	!	!	!
=76	=76	=76	=76	=76	=76	=76	=76	=76	=76	=76	=76	=76
!	!	!	!	!	!	!	!	!	!LO:TX:a:B:t=t	!	!	!
.	.	.	.	.	.	.	.	.	8qqcc/	.	.	.
4.ryy	16g#X/LL	.	16b\LL	.	4.r	.	4.r	.	4b\	-i	4.r	4.r
.	16f#X/JJ	.	16dd#X\JJ	.	.	.	.	.	.	.	.	.
.	8qqf#/	.	8qqdd#/	.	.	.	.	.	.	.	.	.
.	4g#/	.	4ee\	.	.	.	.	.	.	.	.	.
.	.	.	.	.	.	.	.	.	8r	.	.	.
=77	=77	=77	=77	=77	=77	=77	=77	=77	=77	=77	=77	=77
4.ryy	8b\L	.	8ddn\L	.	4.r	.	4.r	.	8dd\	vir-	4.r	4.r
.	8b\	.	8dd\	.	.	.	.	.	8dd\	-tu-	.	.
.	8b\J	.	8dd\J	.	.	.	.	.	8dd\	-tem	.	.
=78	=78	=78	=78	=78	=78	=78	=78	=78	=78	=78	=78	=78
4.ryy	8b\L	.	8dd\L	.	4.r	.	4.r	.	8dd\	o-	4.r	4.r
.	(16g#X\L	.	16b\L	.	.	.	.	.	16b\LL	-pe-	.	.
.	16a\J)	.	16cc\J	.	.	.	.	.	16cc\JJ	.	.	.
.	8b\J	.	8dd\J	.	.	.	.	.	8dd\	-rum	.	.
!	!	!	!LO:LB:g=original	!	!	!	!	!	!	!	!	!
=79	=79	=79	=79	=79	=79	=79	=79	=79	=79	=79	=79	=79
4.ryy	8b\L	.	8dd\L	.	4.r	.	4.r	.	4.dd\	su-	4.r	4.r
.	8b\	.	8dd\	.	.	.	.	.	.	.	.	.
.	8b\J	.	8dd\J	.	.	.	.	.	.	.	.	.
=80	=80	=80	=80	=80	=80	=80	=80	=80	=80	=80	=80	=80
.	8qqdd/	.	8qqdd/	.	.	.	.	.	8qqdd/	.	.	.
4.ryy	8cc\L	.	8cc\L	.	4.r	.	4.r	.	8cc\	-o-	4.r	4.r
.	8b\J	.	8b\J	.	.	.	.	.	8b\	-rum	.	.
.	8r	.	8r	.	.	.	.	.	8r	.	.	.
=81	=81	=81	=81	=81	=81	=81	=81	=81	=81	=81	=81	=81
!	!	!	!	!	!	!	!	!	!LO:SIC:o:s=:v:=an-	!	!	!
4.ryy	4.r	.	4.r	.	4.r	.	4.r	.	8ee\	a-	4.r	4.r
.	.	.	.	.	.	.	.	.	8a\	-nun-	.	.
.	.	.	.	.	.	.	.	.	8ff\	-ti-	.	.
=82	=82	=82	=82	=82	=82	=82	=82	=82	=82	=82	=82	=82
.	.	.	.	.	.	.	.	.	8qqa/	.	.	.
4.ryy	4.r	.	4.r	.	4.r	.	4.r	.	8g#X\	-a-	4.r	4.r
.	.	.	.	.	.	.	.	.	8g#\	-bit	.	.
.	.	.	.	.	.	.	.	.	8a\	po-	.	.
=83	=83	=83	=83	=83	=83	=83	=83	=83	=83	=83	=83	=83
4.ryy	4.r	.	4.r	.	4.r	.	4.r	.	16ff\	-pu-	4.r	4.r
.	.	.	.	.	.	.	.	.	16dd\	-lo	.	.
.	.	.	.	.	.	.	.	.	8cc\L	su-	.	.
.	.	.	.	.	.	.	.	.	8b\J	.	.	.
=84	=84	=84	=84	=84	=84	=84	=84	=84	=84	=84	=84	=84
4.ryy	4.r	.	4.r	.	4.r	.	4.r	.	4a\	-o	4.r	4.r
.	.	.	.	.	.	.	.	.	8r	.	.	.
!	!	!	!	!	!	!	!LO:LB:g=original	!	!	!	!	!LO:LB:g=original
=85	=85	=85	=85	=85	=85	=85	=85	=85	=85	=85	=85	=85
!	!	!	!LO:TX:a:i:t=Tutti	!	!	!	!	!	!	!	!	!
4.ryy	4cc\	.	4aa\	.	8AA/L	ut	4A\	ut	4cc\	ut	4e/	4e/
.	.	.	.	.	8C/J	.	.	.	.	.	.	.
.	8b\	.	8gg#X\	.	8E\	det	8G#X\	det	8b\	det	16e/LL	16e/LL
.	.	.	.	.	.	.	.	.	.	.	16e/JJ	16e/JJ
!	!	!	!	!	!LO:LB:g=original	!	!	!	!	!	!	!
=86	=86	=86	=86	=86	=86	=86	=86	=86	=86	=86	=86	=86
4.ryy	8cc\L	.	8aa\L	.	8C/	il-	8A\	il-	8cc\	i-	8e/L	8e/L
.	8cc\J	.	8aa\J	.	8AA/	-lis	8A\	-lis	8cc\	-liſ	8e/J	8e/J
.	8r	.	8r	.	8r	.	8r	.	8r	.	8r	8r
=87	=87	=87	=87	=87	=87	=87	=87	=87	=87	=87	=87	=87
4.ryy	4ee\	.	4ccc\	.	8C\L	ut	4c\	ut	4ee\	ut	4cc\	4ee\
.	.	.	.	.	8E\J	.	.	.	.	.	.	.
.	8dd\	.	8bb\	.	8G\	det	8B\	det	8dd\	det	16g\LL	16dd\LL
.	.	.	.	.	.	.	.	.	.	.	16g\JJ	16dd\JJ
=88	=88	=88	=88	=88	=88	=88	=88	=88	=88	=88	=88	=88
4.ryy	8ee\L	.	8ccc\L	.	8E\	il-	8c\	il-	8ee\	il-	8cc\L	8ee\L
.	8ee\J	.	8ccc\J	.	8C\	-lis	8c\	-lis	8ee\	-liſ	8cc\J	8ee\J
.	8r	.	8r	.	8r	.	8r	.	8r	.	8r	8r
=89	=89	=89	=89	=89	=89	=89	=89	=89	=89	=89	=89	=89
!	!	!	!LO:SIC:o=:v:♭ nad 5 linia	!	!	!	!	!	!	!	!	!
4.ryy	8gg\L	.	8bb-X\L	.	8c\	hae-	8B-X\	hae-	8ee\	hae-	8cc\L	8ee\L
.	8gg\	.	8bb-\	.	8c\	-re-	8B-\	-re-	8ee\	-re-	8cc\	8ee\
.	8gg\J	.	8bb-\J	.	8c\	-di-	8B-\	-di-	8ee\	-di-	8cc\J	8ee\J
!	!	!	!	!	!	!	!	!	!LO:LB:g=original	!	!	!
=90	=90	=90	=90	=90	=90	=90	=90	=90	=90	=90	=90	=90
!	!	!	!LO:SIC:o:s=:v:=8bb-	!	!	!	!LO:SIC:o:s=:v:=4B-	!	!	!	!	!
4.ryy	8gg\L	.	8bb\L	.	4c\	-ta-	4B\	-ta-	4ee\	-ta-	8cc\L	8ee\L
!	!	!	!LO:SIC:o:s=:v:=8bb-	!	!	!	!	!	!	!	!	!
.	8gg\	.	8bb\	.	.	.	.	.	.	.	8cc\	8ee\
!	!	!	!LO:SIC:o:s=:v:=8bb-	!	!	!	!LO:SIC:o:s=:v:=8B-	!	!	!	!	!
.	8gg\J	.	8bb\J	.	8c\	-tem	8B\	-tem	8ee\	-tem	8cc\J	8ee\J
=91	=91	=91	=91	=91	=91	=91	=91	=91	=91	=91	=91	=91
!	!LO:SIC:o=:v:niejednoznaczny zapis [♮ lub ♭]	!	!LO:SIC:o=:v:♭ nad 5 linia	!	!	!	!LO:SIC:o:s=:v:=4B-	!	!	!	!	!
4.ryy	8ggn\L	.	8bb-X\L	.	4c\	gen-	4B\	gen-	4ee\	gen-	8cc\L	8ee\L
.	8gg\	.	8bb-\	.	.	.	.	.	.	.	8cc\	8ee\
!	!	!	!	!	!	!	!LO:SIC:o:s=:v:=8B-	!	!	!	!	!
.	8gg\J	.	8bb-\J	.	8C/	-ti-	8B\	-ti-	8ee\	-ti-	8cc\J	8ee\J
=92	=92	=92	=92	=92	=92	=92	=92	=92	=92	=92	=92	=92
!	!	!	!LO:SIC:o:s=:v:=8qbb-	!	!	!	!LO:SIC:o:s=:v:=8qB-	!	!	!	!	!
.	8qqgg/	.	8qqaa/	.	.	.	8qqB/	.	8qqee/	.	.	.
4.ryy	4ff\	.	4aa\	.	8F\	-um	4A\	-um	4ff\	-um	4cc\	4ff\
.	.	.	.	.	8r	.	.	.	.	.	.	.
.	8f/	.	8cc\	.	8A\	o-	8A\	o-	8cc\	o-	8r	8r
=93	=93	=93	=93	=93	=93	=93	=93	=93	=93	=93	=93	=93
4.ryy	8f/L	.	4dd\	.	8B-X\	.	8.F\	.	8.dd\	.	4.r	4.r
!	!LO:SIC:o:s=:v:=8b-	!	!	!	!	!	!	!	!	!	!	!
.	8b/	.	.	.	8G\	-pe-	.	.	.	.	.	.
.	.	.	.	.	.	.	16F\	-pe-	16dd\	-pe-	.	.
!	!LO:SIC:o:s=:v:=8b-	!	!	!	!	!	!LO:SIC:o:s=:v:=8B-	!	!	!	!	!
.	8b/J	.	8ee\	.	8c\	-ra	8B\	-ra	8ee\	-ra	.	.
=94	=94	=94	=94	=94	=94	=94	=94	=94	=94	=94	=94	=94
!	!LO:SIC:o:s=:v:=8qb-	!	!	!	!	!	!	!	!	!	!	!
.	8qqb/	.	8qqee/	.	.	.	.	.	.	.	.	.
4.ryy	4a/	.	4ff\	.	8A\	ma-	8A\	ma-	8ff\	ma-	4.r	4.r
.	.	.	.	.	8F\	-nu-	8A\	-nu-	8ff\	-nu-	.	.
.	8f/	.	8cc\	.	8A\	-um	8F\	-um	8cc\	-um	.	.
=95	=95	=95	=95	=95	=95	=95	=95	=95	=95	=95	=95	=95
4.ryy	8f/L	.	4dd\	.	8B-X\L	e-	4F\	e-	4dd\	e-	4.r	4.r
!	!LO:SIC:o:s=:v:=8b-	!	!	!	!	!	!	!	!	!	!	!
.	8b/	.	.	.	8G\J	.	.	.	.	.	.	.
!	!LO:SIC:o:s=:v:=8b-	!	!	!	!	!	!LO:SIC:o:s=:v:=8B-	!	!	!	!	!
.	8b/J	.	8ee\	.	8c\	-jus	8B\	-jus	8ee\	-juſ	.	.
=96	=96	=96	=96	=96	=96	=96	=96	=96	=96	=96	=96	=96
4.ryy	8a\L	.	8ff\L	.	8F\	ve-	8A\	ve-	8ff\	ve-	4.r	4.r
!	!LO:SIC:o:s=:v:=8b-	!	!	!	!	!	!LO:SIC:o:s=:v:=8B-	!	!	!	!	!
.	8b\	.	(16ee\L	.	8G\	-ri-	8B\	-ri-	16ee\LL	-ri-	.	.
.	.	.	16dd\J)	.	.	.	.	.	16dd\JJ	.	.	.
.	8cc\J	.	8cc\J	.	8A\	-taſ	8c\	-tas	8cc\	-taſ	.	.
!	!LO:LB:g=original	!	!	!	!	!	!	!	!	!	!	!
=97	=97	=97	=97	=97	=97	=97	=97	=97	=97	=97	=97	=97
!	!	!	!	!	!LO:SIC:o:s=:v:=16B-	!	!	!	!	!	!	!
4.ryy	16.dd\LL	.	16dd\LL	.	16B\	et	16d\	et	16dd\	et	4.r	4.r
!	!	!	!	!	!LO:SIC:o:s=:v:=16B-	!	!LO:SIC:o:s=:v:=16B-	!	!	!	!	!
.	.	.	16gg\JJ	.	16B\	ju-	16B\	ju-	16gg\	ju-	.	.
!	!LO:SIC:o:s=:v:=32b-	!	!	!	!	!	!	!	!	!	!	!
.	32b\JJk	.	.	.	.	.	.	.	.	.	.	.
!	!	!	!LO:SIC:o=:v:niejednoznaczny zapis ozdobnika [przyjęto obiegnik górny]	!	!	!	!	!	!	!	!	!
.	8qqa/	.	.	.	.	.	8qqA/	.	8qqff/	.	.	.
.	4g/	.	4ee\	.	8c\	-di-	8.G\	-di-	8.ee\	-di-	.	.
.	.	.	.	.	8C/	-ci-	.	.	.	.	.	.
.	.	.	.	.	.	.	16G\	-ci-	16ee\	-ci-	.	.
!	!	!	!	!	!LO:LB:g=original	!	!LO:LB:g=original	!	!	!	!	!
=98	=98	=98	=98	=98	=98	=98	=98	=98	=98	=98	=98	=98
.	8qqg/	.	8qqee/	.	.	.	8qqG/	.	8qqee/	.	.	.
4.ryy	8a/	.	8ff\	.	4F\	-um	4A\	-um	4ff\	-um	4.r	4.r
!	!LO:SIC:o:s=:v:=4b-	!	!	!	!	!	!	!	!	!	!	!
.	4b\	.	4dd\	.	.	.	.	.	.	.	.	.
.	.	.	.	.	8r	.	8r	.	8r	.	.	.
=99	=99	=99	=99	=99	=99	=99	=99	=99	=99	=99	=99	=99
4.ryy	8a/	.	8cc\	.	4.r	.	4.r	.	4.r	.	4.r	4.r
!	!	!	!LO:SIC:o:s=:v:=4b-	!	!	!	!	!	!	!	!	!
.	8qqa/	.	8qqcc/	.	.	.	.	.	.	.	.	.
.	4g/	.	4b\	.	.	.	.	.	.	.	.	.
=100	=100	=100	=100	=100	=100	=100	=100	=100	=100	=100	=100	=100
4.ryy	8f/	.	8a/	.	4.r	.	4.r	.	4.r	.	4.r	4.r
!	!	!	!LO:SIC:o:s=:v:=4b-	!	!	!	!	!	!	!	!	!
.	4d/	.	4b/	.	.	.	.	.	.	.	.	.
!	!	!	!LO:LB:g=original	!	!	!	!	!	!	!	!	!
=101	=101	=101	=101	=101	=101	=101	=101	=101	=101	=101	=101	=101
4.ryy	8c/	.	8a/	.	4.r	.	4.r	.	4.r	.	4.r	4.r
!	!LO:SIC:o:s=:v:=4B-	!	!	!	!	!	!	!	!	!	!	!
.	8qqd/	.	8qqa/	.	.	.	.	.	.	.	.	.
.	4B/	.	4g/	.	.	.	.	.	.	.	.	.
=102	=102	=102	=102	=102	=102	=102	=102	=102	=102	=102	=102	=102
!	!LO:TX:a:t=P:mixedbeam:problem	!	!LO:TX:a:t=P:problem=mixed beam	!	!	!	!	!	!	!	!	!
4.ryy	(>16A/LL	.	(16f/LL	.	4.r	.	4.r	.	4.r	.	4.r	4.r
.	16ff\)	.	16ff\)	.	.	.	.	.	.	.	.	.
.	(>16ee\	.	(16ee\	.	.	.	.	.	.	.	.	.
.	16dd\)	.	16dd\)	.	.	.	.	.	.	.	.	.
.	(>16cc\	.	(16cc\	.	.	.	.	.	.	.	.	.
.	16ff\JJ)	.	16ff\JJ)	.	.	.	.	.	.	.	.	.
=103	=103	=103	=103	=103	=103	=103	=103	=103	=103	=103	=103	=103
!	!LO:SIC:o:s=:v:=16b-	!	!LO:SIC:o:s=:v:=16b-	!	!	!	!	!	!	!	!	!
4.ryy	16b/LL	.	(16b/LL	.	4.r	.	4.r	.	4.r	.	4.r	4.r
.	16g/JJ	.	16g/JJ)	.	.	.	.	.	.	.	.	.
.	8qqf/	.	8qqf/	.	.	.	.	.	.	.	.	.
.	4e/	.	4e/	.	.	.	.	.	.	.	.	.
=104	=104	=104	=104	=104	=104	=104	=104	=104	=104	=104	=104	=104
.	8qqe/	.	8qqe/	.	.	.	.	.	.	.	.	.
!	!	!	!	!	!	!	!LO:TX:a:i:t=Solo	!	!	!	!	!
4.ryy	4f/	.	4f/	.	4.r	.	8r	.	4.r	.	4.r	4.r
.	.	.	.	.	.	.	8r	.	.	.	.	.
.	8r	.	8r	.	.	.	8c\	Fi-	.	.	.	.
=105	=105	=105	=105	=105	=105	=105	=105	=105	=105	=105	=105	=105
!	!LO:SIC:o=:v:p = pia&colon;global	!	!	!	!	!	!	!	!	!	!	!
.	.	.	.	.	.	.	8qqB-X/	.	.	.	.	.
!	!	!	!	!LO:DY:a	!	!	!	!	!	!	!	!
4.ryy	8a\L	p	8cc\L	p	4.r	.	16A/	-de-	4.r	.	4.r	4.r
.	.	.	.	.	.	.	16G/	-li-	.	.	.	.
.	8a\	.	8cc\	.	.	.	4F/	-a	.	.	.	.
.	8a\J	.	8cc\J	.	.	.	.	.	.	.	.	.
=106	=106	=106	=106	=106	=106	=106	=106	=106	=106	=106	=106	=106
4.ryy	8b-X\L	.	8dd\L	.	4.r	.	8d\	om-	4.r	.	4.r	4.r
.	8b-\	.	8dd\	.	.	.	8d\	-ni-	.	.	.	.
.	8b-\J	.	8dd\J	.	.	.	8d\	-a	.	.	.	.
=107	=107	=107	=107	=107	=107	=107	=107	=107	=107	=107	=107	=107
.	.	.	.	.	.	.	8qqc/	.	.	.	.	.
4.ryy	8g/L	.	8b-X\L	.	4.r	.	16B-X\LL	man-	4.r	.	4.r	4.r
.	.	.	.	.	.	.	16e\JJ	.	.	.	.	.
.	8g/	.	8b-\	.	.	.	8g\	-da-	.	.	.	.
.	8g/J	.	8b-\J	.	.	.	8B-\	-ta	.	.	.	.
=108	=108	=108	=108	=108	=108	=108	=108	=108	=108	=108	=108	=108
!	!	!	!	!	!	!	!LO:SIC:o:s=:v:=4B-	!	!	!	!	!
!	!	!	!	!	!	!	!LO:SIC:o=:v:ozdobnik t [przyjęto trillo]&colon;global	!	!	!	!	!
!	!	!	!LO:SIC:o:s=:v:=8b-	!	!	!	!LO:TX:a:B:t=t	!	!	!	!	!
4.ryy	8g/L	.	8b\L	.	4.r	.	4B\	e-	4.r	.	4.r	4.r
!	!	!	!LO:SIC:o:s=:v:=8b-	!	!	!	!	!	!	!	!	!
.	8g/	.	8b\	.	.	.	.	.	.	.	.	.
.	8f/J	.	8a\J	.	.	.	8A\	-jus	.	.	.	.
=109	=109	=109	=109	=109	=109	=109	=109	=109	=109	=109	=109	=109
4.ryy	8c/L	.	4a\	.	4.r	.	4A\	con-	4.r	.	4.r	4.r
.	8f/	.	.	.	.	.	.	.	.	.	.	.
.	8d/J	.	8bn\	.	.	.	8Bn\	-fir-	.	.	.	.
=110	=110	=110	=110	=110	=110	=110	=110	=110	=110	=110	=110	=110
4.ryy	8g/L	.	(16cc\LL	.	4.r	.	(16c\LL	-ma-	4.r	.	4.r	4.r
.	.	.	16b\JJ)	.	.	.	16B\JJ)	.	.	.	.	.
.	.	.	8qqb/	.	.	.	8qqB/	.	.	.	.	.
.	8f/	.	4cc\	.	.	.	4c\	-ta	.	.	.	.
.	8e/J	.	.	.	.	.	.	.	.	.	.	.
=111	=111	=111	=111	=111	=111	=111	=111	=111	=111	=111	=111	=111
4.ryy	8bn\L	.	8dd\L	.	4.r	.	8d\	in	4.r	.	4.r	4.r
.	8dd\	.	8ff\	.	.	.	8f\	ſae-	.	.	.	.
.	8cc\J	.	8ee\J	.	.	.	16e\	-cu-	.	.	.	.
.	.	.	.	.	.	.	16e\	-lum	.	.	.	.
=112	=112	=112	=112	=112	=112	=112	=112	=112	=112	=112	=112	=112
!	!	!	!LO:TX:a:B:t=t	!	!	!	!	!	!	!	!	!
4.ryy	8cc\L	.	8ee\L	.	4.r	.	16e\	ſae-	4.r	.	4.r	4.r
.	.	.	.	.	.	.	16e\	-cu-	.	.	.	.
.	8b\J	.	8dd\J	.	.	.	8d\	-li	.	.	.	.
.	8r	.	8r	.	.	.	8r	.	.	.	.	.
=113	=113	=113	=113	=113	=113	=113	=113	=113	=113	=113	=113	=113
4.ryy	8e/L	.	8cc\L	.	4.r	.	8c\	fa-	4.r	.	4.r	4.r
.	8e/	.	8cc\	.	.	.	8c\	-cta	.	.	.	.
.	8e/J	.	8cc\J	.	.	.	8c\	in	.	.	.	.
!	!	!	!	!	!	!	!LO:LB:g=original	!	!	!	!	!
=114	=114	=114	=114	=114	=114	=114	=114	=114	=114	=114	=114	=114
4.ryy	8a/	.	8ff\	.	4.r	.	8f\	ve-	4.r	.	4.r	4.r
.	4a/	.	4ff\	.	.	.	4f\	-ri-	.	.	.	.
!	!LO:LB:g=original	!	!	!	!	!	!	!	!	!	!	!
=115	=115	=115	=115	=115	=115	=115	=115	=115	=115	=115	=115	=115
4.ryy	16g/LL	.	16ee\LL	.	4.r	.	16e\LL	-ta-	4.r	.	4.r	4.r
.	16f/JJ	.	16dd\JJ	.	.	.	16d\JJ	.	.	.	.	.
.	8qqf/	.	8qqdd/	.	.	.	8qqd/	.	.	.	.	.
.	4e/	.	4cc\	.	.	.	4c\	-te	.	.	.	.
=116	=116	=116	=116	=116	=116	=116	=116	=116	=116	=116	=116	=116
4.ryy	8b\L	.	8ff\L	.	4.r	.	8f\	et	4.r	.	4.r	4.r
.	8dd\	.	8ff\	.	.	.	8f\	ae-	.	.	.	.
.	8b\J	.	8ff\J	.	.	.	8f\	-qui-	.	.	.	.
=117	=117	=117	=117	=117	=117	=117	=117	=117	=117	=117	=117	=117
4.ryy	8g/L	.	8ee\L	.	4.r	.	8e\L	-ta-	4.r	.	4.r	4.r
.	8f/	.	8dd\	.	.	.	8d\	.	.	.	.	.
.	8e/J	.	8cc\J	.	.	.	8c\J	.	.	.	.	.
=118	=118	=118	=118	=118	=118	=118	=118	=118	=118	=118	=118	=118
4.ryy	8a/	.	8dd\	.	4.r	.	8d\	.	4.r	.	4.r	4.r
.	8qqe/	.	8qqcc/	.	.	.	8qqc/	.	.	.	.	.
.	4d/	.	4b\	.	.	.	4B\	.	.	.	.	.
=119	=119	=119	=119	=119	=119	=119	=119	=119	=119	=119	=119	=119
.	8qqd/	.	8qqb/	.	.	.	.	.	.	.	.	.
4.ryy	4.e/	.	4.cc\	.	4.r	.	4c\	-te	4.r	.	4.r	4.r
.	.	.	.	.	.	.	8r	.	.	.	.	.
!	!	!	!LO:LB:g=original	!	!	!	!	!	!	!	!	!
=120	=120	=120	=120	=120	=120	=120	=120	=120	=120	=120	=120	=120
4.ryy	8ee\L	.	4ccc\	.	8C\	Re-	8G\	Re-	8ee\	Re-	4cc\	4ee\
.	8g\	.	.	.	8E\	-demp-	8G\	-demp-	8ee\	-demp-	.	.
.	8dd\J	.	8bb\	.	8G\	-ti-	8B\	-ti-	8dd\	-ti-	8g\	8dd\
=121	=121	=121	=121	=121	=121	=121	=121	=121	=121	=121	=121	=121
4.ryy	8ee\L	.	4ccc\	.	8c\L	-o-	4G\	-o-	4ee\	-o-	4cc\	4ee\
.	8g\	.	.	.	8E\J	.	.	.	.	.	.	.
.	8dd\J	.	8bb\	.	8G\	-nem	8B\	-nem	8dd\	-nem	8g\	8dd\
=122	=122	=122	=122	=122	=122	=122	=122	=122	=122	=122	=122	=122
4.ryy	8ee\L	.	8ccc\L	.	16C\	mi-	16c\	mi-	16ee\	mi-	8cc\L	8ee\L
.	.	.	.	.	16C\	-sit	16c\	-sit	16ee\	-sit	.	.
!	!	!	!	!	!	!	!	!	!LO:SIC:o=:v:napis nad nutami - vedi?	!	!	!
.	16ee\L	.	16ccc\L	.	8E\	po-	8c\	po-	8ee\	po-	16cc\L	16ee\L
.	16ee\	.	16ccc\	.	.	.	.	.	.	.	16cc\	16ee\
.	16ee\	.	16ccc\	.	16C\	-pu-	16c\	-pu-	16ee\	-pu-	16cc\	16ee\
.	16ee\JJ	.	16ccc\JJ	.	16C\	-lo	16c\	-lo	16ee\	-lo	16cc\JJ	16ee\JJ
!	!	!	!	!	!	!	!	!	!LO:LB:g=original	!	!	!
=123	=123	=123	=123	=123	=123	=123	=123	=123	=123	=123	=123	=123
4.ryy	8dd\L	.	8bb\L	.	8G\	su-	8B\	su-	8dd\	su-	8g/L	8dd\L
.	8dd\J	.	8bb\J	.	8GG/	-o	8B\	-o	8dd\	-o	8g/J	8dd\J
.	8r	.	8r	.	8r	.	8r	.	8r	.	8r	8r
=124	=124	=124	=124	=124	=124	=124	=124	=124	=124	=124	=124	=124
4.ryy	4b\	.	4dd\	.	4.G\	man-	4B\	man-	8dd\	man-	4g\	4dd\
.	.	.	.	.	.	.	.	.	4ee\	.	.	.
.	8cc\	.	8ee\	.	.	.	8c\	.	.	.	8cc\	8ee\
=125	=125	=125	=125	=125	=125	=125	=125	=125	=125	=125	=125	=125
4.ryy	4dd\	.	4ff\	.	4G\	-da-	4d\	-da-	4ff\	-da-	4dd\	4ff\
.	8cc\	.	8ee\	.	8G\	-vit	8c\	-vit	8ee\	-vit	8cc\	8ee\
=126	=126	=126	=126	=126	=126	=126	=126	=126	=126	=126	=126	=126
4.ryy	4b\	.	4dd\	.	4G\	in	4B\	in	4dd\	in	4g/	4dd\
.	8cc\	.	8ee\	.	8G\	ae-	8c\	ae-	8ee\	ae-	8cc\	8ee\
!	!	!	!	!	!	!	!LO:LB:g=original	!	!	!	!LO:LB:g=original	!
=127	=127	=127	=127	=127	=127	=127	=127	=127	=127	=127	=127	=127
4.ryy	4dd\	.	4ff\	.	4G\	-ter-	4d\	-ter-	4ff\	-ter-	4dd\	4ff\
.	8cc\	.	8ee\	.	8C\	-num	8c\	-num	8ee\	-num	8cc\	8ee\
=128	=128	=128	=128	=128	=128	=128	=128	=128	=128	=128	=128	=128
4.ryy	8ee\L	.	8gg\L	.	8c\L	tes-	4G/	tes-	8ee\L	tes-	4cc\	4ee\
.	8dd\	.	8gg\	.	8B\J	.	.	.	8dd\J	.	.	.
.	8ee\J	.	8ccc\J	.	8A\	-ta-	8e\	-ta-	8cc\	-ta-	8r	8r
=129	=129	=129	=129	=129	=129	=129	=129	=129	=129	=129	=129	=129
.	8qqee/	.	8qqccc/	.	.	.	.	.	.	.	.	.
4.ryy	4dd\	.	4bb\	.	8G\L	-men-	4d\	-men-	4b\	-men-	8g\L	8dd\L
.	.	.	.	.	8F\J	.	.	.	.	.	8g\	8dd\
!	!	!	!	!	!	!	!	!	!LO:SIC:o:s=:v:=-um	!	!	!
.	8ee\	.	8ccc\	.	8E\	-tum	8e\	-t(um)	8cc\	-ti	8cc\J	8ee\J
!	!	!	!	!	!	!	!	!	!	!	!	!LO:LB:g=original
=130	=130	=130	=130	=130	=130	=130	=130	=130	=130	=130	=130	=130
!	!	!	!	!	!LO:TX:a:t=P:problem=mixed beam	!	!	!	!	!	!	!
4.ryy	8g\L	.	8ee\L	.	8C\L	ſu-	8c\	su-	8ee\	su-	8cc\L	8ee\L
.	8b\	.	8dd\	.	8G\	.	4B\	.	4dd\	.	8g\	8dd\
.	8dd\J	.	8bb\J	.	8GG/J	.	.	.	.	.	8g\J	8dd\J
!	!	!	!	!	!LO:LB:g=original	!	!	!	!	!	!	!
=131	=131	=131	=131	=131	=131	=131	=131	=131	=131	=131	=131	=131
!	!	!	!	!	!	!	!	!	!LO:SIC:o:s=:v:=-um	!	!	!
4.ryy	4ee\	.	4ccc\	.	4C/	-um	4c\	-um	4ee\	-i	4cc\	4ee;\
.	8r;	.	8r;	.	8r;	.	8r;	.	8r;	.	8r;	8r
!	!LO:LB:g=original	!	!	!	!	!	!	!	!	!	!	!
=132	=132	=132	=132	=132	=132	=132	=132	=132	=132	=132	=132	=132
!	!	!	!	!	!	!	!	!	!LO:SIC:o=:v:skrótowe oznaczenie tempa Adagio	!	!	!
!	!LO:TX:a:B:t=Adagio	!	!LO:TX:a:B:t=Adagio	!	!LO:TX:a:B:t=adagio	!	!LO:TX:a:B:t=adagio	!	!LO:TX:a:B:t=Ada	!	!LO:TX:a:B:t=Adagio	!LO:TX:a:B:t=Adagio
4.ryy	16.c/LL	.	16.c/LL	.	8C/	ſan-	8c\	ſan-	8ee\	ſan-	4cc\	4ee\
.	32c/K	.	32c/K	.	.	.	.	.	.	.	.	.
.	16.c/	.	16.e/	.	8C/	-ctum	8c\	-ctum	8ee\	-ctum	.	.
.	32c/K	.	32e/K	.	.	.	.	.	.	.	.	.
.	16.e/	.	16.g/	.	16C/	et	16c\	et	16ee\	et	8r	8r
.	.	.	.	.	16C/	ter-	16c\	ter-	16ee\	ter-	.	.
.	32e/JJk	.	32g/JJk	.	.	.	.	.	.	.	.	.
=133	=133	=133	=133	=133	=133	=133	=133	=133	=133	=133	=133	=133
4.ryy	16.g/LL	.	16.cc\LL	.	8C/	-ri-	8c\	-ri-	8ee\	-ri-	4cc\	4ee\
.	32g/K	.	32cc\K	.	.	.	.	.	.	.	.	.
.	16.cc/	.	16.ee\	.	8C/	-bi-	8c\	-bi-	8ee\	-bi-	.	.
.	32cc/K	.	32ee\K	.	.	.	.	.	.	.	.	.
.	16.ee/	.	16.gg\	.	8C/	-le	8c\	-le	8ee\	-le	8r	8r
.	32ee/JJk	.	32gg\JJk	.	.	.	.	.	.	.	.	.
=134	=134	=134	=134	=134	=134	=134	=134	=134	=134	=134	=134	=134
4.ryy	16.ee\LL	.	16.ccc\LL	.	4C/	no-	4c\	no-	4ee\	no-	16.cc\LL	16.ee\LL
.	32ee\K	.	32ccc\K	.	.	.	.	.	.	.	32cc\K	32ee\K
.	16.ee\	.	16.ccc\	.	.	.	.	.	.	.	16.cc\	16.ee\
.	32ee\K	.	32ccc\K	.	.	.	.	.	.	.	32cc\K	32ee\K
.	16.ee\	.	16.ccc\	.	8C/	-men	8c\	-men	8ee\	-men	16.cc\	16.ee\
.	32cc\JJk	.	32ee\JJk	.	.	.	.	.	.	.	32cc\JJk	32ee\JJk
!	!	!	!LO:LB:g=original	!	!	!	!	!	!	!	!	!
=135	=135	=135	=135	=135	=135	=135	=135	=135	=135	=135	=135	=135
!	!LO:TX:a:B:t=t	!	!LO:TX:a:B:t=t	!	!	!	!LO:SIC:o=:v:kreska pionowa przed nutą	!	!LO:TX:a:B:t=t	!	!	!
4.ryy	8cc\L	.	8ee\L	.	8G\	e-	8c\	e-	8ee\	e-	8cc\L	8ee\L
.	8b\J	.	8dd\J	.	8GG/	-jus	8B\	-jus	8dd\	-juſ	8g\J	8dd\J
.	8r	.	8r	.	8r	.	8r	.	8r	.	8r	8r
=136	=136	=136	=136	=136	=136	=136	=136	=136	=136	=136	=136	=136
!	!	!	!	!	!	!	!	!	!LO:SIC:o=:v:tekst zamazany / dopisany pod głównym tekstem	!	!	!
4.ryy	16.b\LL	.	16.dd\LL	.	4.r	.	8B\	i-	8dd\	i-	4.r	4.r
.	32b\K	.	32dd\K	.	.	.	.	.	.	.	.	.
.	16.b\	.	16.dd\	.	.	.	8B\	-ni-	8dd\	-ni-	.	.
.	32b\K	.	32dd\K	.	.	.	.	.	.	.	.	.
.	16.b\	.	16.dd\	.	.	.	16B\	-ti-	16dd\	-ti-	.	.
.	.	.	.	.	.	.	16B\	-um	16dd\	-um	.	.
.	32b\JJk	.	32dd\JJk	.	.	.	.	.	.	.	.	.
!	!	!	!	!	!	!	!	!	!LO:LB:g=original	!	!	!
=137	=137	=137	=137	=137	=137	=137	=137	=137	=137	=137	=137	=137
4.ryy	16.b\LL	.	16.dd\LL	.	4E\	ſa-	4B\	ſa-	4dd\	ſa-	4e/	4e/
.	32b\K	.	32dd\K	.	.	.	.	.	.	.	.	.
.	16.b\	.	16.dd\	.	.	.	.	.	.	.	.	.
.	32b\K	.	32dd\K	.	.	.	.	.	.	.	.	.
.	16.b\	.	16.dd\	.	8E\	-pi-	8B\	-pi-	8dd\	-pi-	8r	8r
.	32b\JJk	.	32dd\JJk	.	.	.	.	.	.	.	.	.
=138	=138	=138	=138	=138	=138	=138	=138	=138	=138	=138	=138	=138
4.ryy	16.b\LL	.	16.dd\LL	.	4E\	-en-	4B\	-en-	4dd\	-en-	16.e/LL	16.e/LL
.	32b\K	.	32dd\K	.	.	.	.	.	.	.	32e/K	32e/K
.	16.b\	.	16.dd\	.	.	.	.	.	.	.	16.e/	16.e/
.	32b\K	.	32dd\K	.	.	.	.	.	.	.	32e/K	32e/K
.	16.b\	.	16.dd\	.	8E\	-ti-	8B\	-ti-	8dd\	-ti-	16.e/	16.e/
.	32b\JJk	.	32dd\JJk	.	.	.	.	.	.	.	32e/JJk	32e/JJk
=139	=139	=139	=139	=139	=139	=139	=139	=139	=139	=139	=139	=139
.	.	.	.	.	.	.	8qqB/	.	8qqdd/	.	.	.
4.ryy	16a/LL	.	16cc/LL	.	4A\	-ae	4A\	-ae	4cc\	-ae	4e/	4e/
.	16a/	.	16a/	.	.	.	.	.	.	.	.	.
.	16e/	.	16e/	.	.	.	.	.	.	.	.	.
.	16c/J	.	16c/J	.	.	.	.	.	.	.	.	.
.	8A/J	.	8A/J	.	8r	.	8r	.	8r	.	8r	8r
!	!	!	!	!	!	!	!LO:LB:g=original	!	!	!	!	!
=140	=140	=140	=140	=140	=140	=140	=140	=140	=140	=140	=140	=140
4.ryy	16.a/LL	.	16.cc\LL	.	4.r	.	4A\	ti-	4cc\	ti-	4.r	4.r
.	32a/K	.	32cc\K	.	.	.	.	.	.	.	.	.
.	16.a/	.	16.cc\	.	.	.	.	.	.	.	.	.
.	32a/K	.	32cc\K	.	.	.	.	.	.	.	.	.
.	16.a/	.	16.cc\	.	.	.	8A\	-mor	8cc\	-mor	.	.
.	32a/JJk	.	32cc\JJk	.	.	.	.	.	.	.	.	.
=141	=141	=141	=141	=141	=141	=141	=141	=141	=141	=141	=141	=141
4.ryy	16.a/LL	.	16.cc\LL	.	4.D\	Do-	4.A\	Do-	4.cc\	Do-	4dd\	4dd\
.	32a/K	.	32cc\K	.	.	.	.	.	.	.	.	.
.	16.a/	.	16.cc\	.	.	.	.	.	.	.	.	.
.	32a/K	.	32cc\K	.	.	.	.	.	.	.	.	.
.	16.a/	.	16.cc\	.	.	.	.	.	.	.	8r	8r
.	32a/JJk	.	32cc\JJk	.	.	.	.	.	.	.	.	.
=142	=142	=142	=142	=142	=142	=142	=142	=142	=142	=142	=142	=142
4.ryy	16.a/LL	.	16.cc\LL	.	4D\	.	4A\	.	4cc\	.	16.dd\LL	16.dd\LL
.	32a/K	.	32cc\K	.	.	.	.	.	.	.	32dd\K	32dd\K
.	16.a/	.	16.cc\	.	.	.	.	.	.	.	16.dd\	16.dd\
.	32a/K	.	32cc\K	.	.	.	.	.	.	.	32dd\K	32dd\K
.	16.a/	.	16.cc\	.	8D\	-mi-	8A\	-mi-	8cc\	-mi-	16.dd\	16.dd\
.	32a/JJk	.	32cc\JJk	.	.	.	.	.	.	.	32dd\JJk	32dd\JJk
!	!LO:LB:g=original	!	!	!	!	!	!	!	!	!	!	!
=143	=143	=143	=143	=143	=143	=143	=143	=143	=143	=143	=143	=143
.	.	.	.	.	.	.	8qqA/	.	8qqcc/	.	.	.
4.ryy	16g/LL	.	16b/LL	.	4GG/	-ni	4G/	-ni	4b\	-ni	4dd\	4dd\
.	16g/	.	16g/	.	.	.	.	.	.	.	.	.
.	16d/	.	16d/	.	.	.	.	.	.	.	.	.
.	16B/J	.	16B/J	.	.	.	.	.	.	.	.	.
.	8G;/J	.	8G;/J	.	8r;	.	8r;	.	8r;	.	8r;	8r;
=144	=144	=144	=144	=144	=144	=144	=144	=144	=144	=144	=144	=144
!	!LO:SIC:o=:v:oznaczenie tempa "Allo" z ogonkiem	!	!LO:SIC:o=:v:oznaczenie tempa "Allo" z ogonkiem	!	!LO:SIC:o=:v:oznaczenie tempa "Allo" z ogonkiem	!	!LO:SIC:o=:v:oznaczenie tempa "Allo" z ogonkiem	!	!LO:SIC:o=:v:oznaczenie tempa "Allo" z ogonkiem	!	!LO:SIC:o=:v:oznaczenie tempa "Allo" z ogonkiem	!LO:SIC:o=:v:oznaczenie tempa "Allo" z ogonkiem
!	!LO:TX:a:B:t=Allo	!	!LO:TX:a:B:t=Allo	!	!LO:TX:a:B:t=Allo	!	!LO:TX:a:B:t=Allo	!	!LO:TX:a:B:t=Allo	!	!LO:TX:a:B:t=Allo	!LO:TX:a:B:t=Allo
4.ryy	8b\L	.	8g/	.	8G\	in-	8B\	in-	8dd\	in-	8g/L	8dd\L
!	!	!	!	!	!	!	!LO:N:vis=4.	!	!	!	!	!
.	8b\	.	4dd\	.	4G\	-tel-	4B\	-tel-	4dd\	-tel-	16g/L	16dd\L
.	.	.	.	.	.	.	.	.	.	.	16g/	16dd\
.	8b\J	.	.	.	.	.	.	.	.	.	16g/	16dd\
.	.	.	.	.	.	.	.	.	.	.	16g/JJ	16dd\JJ
!	!	!	!	!	!LO:LB:g=original	!	!	!	!	!	!LO:LB:g=original	!
=145	=145	=145	=145	=145	=145	=145	=145	=145	=145	=145	=145	=145
4.ryy	8b\L	.	(16dd\LL	.	8G\	-le-	8B\	-le-	8dd\	-le-	4g/	4dd\
.	.	.	16b\JJ)	.	.	.	.	.	.	.	.	.
.	8b\	.	4g/	.	4G\	-ctus	4B\	-ctuſ	4dd\	-ctuſ	.	.
.	8b\J	.	.	.	.	.	.	.	.	.	8r	8r
=146	=146	=146	=146	=146	=146	=146	=146	=146	=146	=146	=146	=146
4.ryy	8cc\L	.	8g/	.	8G\	bo-	8c\	bo-	8ee\	bo-	8cc\L	8ee\L
.	8cc\	.	4ee\	.	4G\	-nuſ	4c\	-nuſ	4ee\	-nuſ	16cc\L	16ee\L
.	.	.	.	.	.	.	.	.	.	.	16cc\	16ee\
.	8cc\J	.	.	.	.	.	.	.	.	.	16cc\	16ee\
.	.	.	.	.	.	.	.	.	.	.	16cc\JJ	16ee\JJ
=147	=147	=147	=147	=147	=147	=147	=147	=147	=147	=147	=147	=147
4.ryy	8cc\L	.	(16ee\LL	.	8G\	om-	8c\	om-	8ee\	om-	4cc\	4ee\
.	.	.	16cc\JJ)	.	.	.	.	.	.	.	.	.
.	8cc\	.	4g/	.	8G\	-ni-	8c\	-ni-	8ee\	-ni-	.	.
.	8cc\J	.	.	.	8G\	-buſ	8c\	-buſ	8ee\	-buſ	8r	8r
!	!	!	!	!	!	!	!	!	!	!	!	!LO:LB:g=original
=148	=148	=148	=148	=148	=148	=148	=148	=148	=148	=148	=148	=148
!	!	!	!	!	!	!	!	!	!LO:SIC:o=:v:powinny być dwie szesnastki [zgodnie z T B]	!	!	!
4.ryy	8dd\L	.	8ff\L	.	16G\	fa-	16d\	fa-	8ff\	faci-	4dd\	4ff\
.	.	.	.	.	16G\	-ci-	16d\	-ci-	.	.	.	.
.	8dd\	.	8ff\	.	8BB/	-en-	8d\	-en-	8ff\	-en-	.	.
!	!	!	!	!	!	!	!	!	!LO:SIC:o=:v:skreślony dźwięk 8ff	!	!	!
.	8cc\J	.	8ee\J	.	16C/	-ti-	16c\	-ti-	16ee\	-ti-	8cc\	8ee\
.	.	.	.	.	16C/	-bus	16c\	-bus	16ee\	-buſ	.	.
!	!	!	!LO:LB:g=original	!	!	!	!	!	!	!	!	!
=149	=149	=149	=149	=149	=149	=149	=149	=149	=149	=149	=149	=149
!	!LO:TX:a:B:t=t	!	!LO:TX:a:B:t=t	!	!	!	!	!	!	!	!	!
4.ryy	4cc\	.	4ee\	.	4G\	e-	4c\	e-	4ee\	e-	4cc\	4ee\
.	8b\	.	8dd\	.	8GG/	-um	8B\	-um	8dd\	-um	8g\	8dd\
=150	=150	=150	=150	=150	=150	=150	=150	=150	=150	=150	=150	=150
4.ryy	8ee\L	.	4ccc\	.	8C\	lau-	8G\	lau-	8ee\	lau-	4cc\	4ee\
.	8g\	.	.	.	8E\	-da-	8G\	-da-	8ee\	-da-	.	.
.	8dd\J	.	8bb\	.	16G\	-ti-	16B\	-ti-	16dd\	-ti-	8g\	8dd\
.	.	.	.	.	16G\	-o	16B\	-o	16dd\	-o	.	.
=151	=151	=151	=151	=151	=151	=151	=151	=151	=151	=151	=151	=151
4.ryy	8ee\L	.	4ccc\	.	8C\L	e-	4G\	e-	4ee\	e-	4cc\	4ee\
.	8g\	.	.	.	8E\J	.	.	.	.	.	.	.
.	8dd\J	.	8bb\	.	8G\	-jus	8B\	-jus	8dd\	-jus	8g\	8dd\
!	!	!	!	!	!	!	!	!	!LO:LB:g=original	!	!	!
=152	=152	=152	=152	=152	=152	=152	=152	=152	=152	=152	=152	=152
4.ryy	8ee\L	.	8gg\L	.	8c\	ma-	8c\	ma-	8ee\	ma-	4cc\	4ee\
.	8dd\	.	8gg\	.	8B\	-net	8d\	-net	8dd\	-net	.	.
.	8ee\J	.	8ccc\J	.	8A\	in	8e\	in	8cc\	in	8r	8r
!	!	!	!	!	!	!	!LO:LB:g=original	!	!	!	!	!
=153	=153	=153	=153	=153	=153	=153	=153	=153	=153	=153	=153	=153
4.ryy	4dd\	.	4bb\	.	8G\	ſae-	8d\	ſae-	8dd\	ſae-	8g\L	8dd\L
.	.	.	.	.	8F\	-cu-	8d\	-cu-	8dd\	-cu-	8g\	8dd\
.	8ee\	.	8ccc\	.	8E\	-lum	8e\	-lum	8ee\	-lum	8cc\J	8ee\J
=154	=154	=154	=154	=154	=154	=154	=154	=154	=154	=154	=154	=154
4.ryy	8g\L	.	8ee\L	.	8C\L	ſae-	8c\L	ſae-	8ee\L	ſae-	8cc\L	8ee\L
.	8b\	.	8dd\	.	8G\J	.	8B\J	.	8dd\J	.	8g\	8dd\
.	8dd\J	.	8bb\J	.	8GG/	-cu-	8B\	-cu-	8dd\	-cu-	8g\J	8dd\J
=155	=155	=155	=155	=155	=155	=155	=155	=155	=155	=155	=155	=155
4.ryy	4ee\	.	4ccc\	.	4C/	-li	4c\	-li	4ee\	-li	8cc\	8ee\
.	.	.	.	.	.	.	.	.	.	.	8r	8r
.	8ee\	.	8gg\	.	8r	.	8r	.	8r	.	8ee\	8gg\
=156	=156	=156	=156	=156	=156	=156	=156	=156	=156	=156	=156	=156
!	!	!	!	!	!	!	!LO:TX:a:t=13	!	!	!	!	!
4.ryy	8cc\	.	4.aa\	.	4.r	.	4.r	.	4.r	.	4.ff\	4.aa\
.	4ff\	.	.	.	.	.	.	.	.	.	.	.
=157	=157	=157	=157	=157	=157	=157	=157	=157	=157	=157	=157	=157
4.ryy	8b\	.	4.gg\	.	4.r	.	4.r	.	4.r	.	4.ee\	4.gg\
.	4ee\	.	.	.	.	.	.	.	.	.	.	.
=158	=158	=158	=158	=158	=158	=158	=158	=158	=158	=158	=158	=158
4.ryy	8a\	.	4.ff\	.	4.r	.	4.r	.	4.r	.	4.dd\	4.ff\
.	4dd\	.	.	.	.	.	.	.	.	.	.	.
=159	=159	=159	=159	=159	=159	=159	=159	=159	=159	=159	=159	=159
4.ryy	16ee\LL	.	16ee\LL	.	4.r	.	4.r	.	4.r	.	4cc\	4ee\
.	16ccc\	.	16ccc\	.	.	.	.	.	.	.	.	.
.	16bb\	.	16bb\	.	.	.	.	.	.	.	.	.
.	16aa\	.	16aa\	.	.	.	.	.	.	.	.	.
.	16gg\	.	16gg\	.	.	.	.	.	.	.	8r	8r
.	16ff\JJ	.	16ff\JJ	.	.	.	.	.	.	.	.	.
=160	=160	=160	=160	=160	=160	=160	=160	=160	=160	=160	=160	=160
!	!	!	!LO:SIC:o=:v:klamra łukowa bez numeru	!	!	!	!	!	!	!	!	!
4.ryy	24ee\LL	.	24ee\LL	.	4.r	.	4.r	.	4.r	.	8r	8r
.	24dd\	.	24dd\	.	.	.	.	.	.	.	.	.
.	24cc\JJ	.	24cc\JJ	.	.	.	.	.	.	.	.	.
!	!LO:TX:a:B:t=t	!	!LO:TX:a:B:t=t	!	!	!	!	!	!	!	!	!
.	4dd\	.	4dd\	.	.	.	.	.	.	.	8g/L	8dd\L
.	.	.	.	.	.	.	.	.	.	.	16g/L	16dd\L
.	.	.	.	.	.	.	.	.	.	.	16g/JJ	16dd\JJ
=161	=161	=161	=161	=161	=161	=161	=161	=161	=161	=161	=161	=161
!	!	!	!	!	!	!	!	!	!LO:TX:a:i:t=Solo	!	!	!
4.ryy	4cc\	.	4cc\	.	4.r	.	4.r	.	8cc\	Glo-	4e/	4cc\
.	.	.	.	.	.	.	.	.	8cc\	-ri-	.	.
.	8r	.	8r	.	.	.	.	.	8cc\	-a	8r	8r
!	!LO:LB:g=original	!	!	!	!	!	!	!	!	!	!	!
=162	=162	=162	=162	=162	=162	=162	=162	=162	=162	=162	=162	=162
4.ryy	4.r	.	4.r	.	4.r	.	4.r	.	8cc\	Pa-	4.r	4.r
.	.	.	.	.	.	.	.	.	4cc\	-tri	.	.
=163	=163	=163	=163	=163	=163	=163	=163	=163	=163	=163	=163	=163
4.ryy	4.r	.	4.r	.	4.r	.	4.r	.	8ff\	glo-	4.r	4.r
.	.	.	.	.	.	.	.	.	8ff\	-ri-	.	.
.	.	.	.	.	.	.	.	.	8ff\	-a	.	.
=164	=164	=164	=164	=164	=164	=164	=164	=164	=164	=164	=164	=164
4.ryy	4.r	.	4.r	.	4.r	.	4.r	.	16ee\	Fi-	4.r	4.r
.	.	.	.	.	.	.	.	.	16dd\	-li-	.	.
.	.	.	.	.	.	.	.	.	8qqdd/	.	.	.
.	.	.	.	.	.	.	.	.	4cc\	-o	.	.
=165	=165	=165	=165	=165	=165	=165	=165	=165	=165	=165	=165	=165
4.ryy	4.r	.	4.r	.	4.r	.	4.r	.	8ff\	et	4.r	4.r
.	.	.	.	.	.	.	.	.	4ff\	ſpi-	.	.
=166	=166	=166	=166	=166	=166	=166	=166	=166	=166	=166	=166	=166
4.ryy	4.r	.	4.r	.	4.r	.	4.r	.	8ee\	-ri-	4.r	4.r
.	.	.	.	.	.	.	.	.	8dd\	-tu-	.	.
.	.	.	.	.	.	.	.	.	8cc\	-i	.	.
=167	=167	=167	=167	=167	=167	=167	=167	=167	=167	=167	=167	=167
4.ryy	4.r	.	4.r	.	4.r	.	4.r	.	8dd\	ſanc-	4.r	4.r
.	.	.	.	.	.	.	.	.	8qqcc/	.	.	.
.	.	.	.	.	.	.	.	.	4b\	.	.	.
=168	=168	=168	=168	=168	=168	=168	=168	=168	=168	=168	=168	=168
.	.	.	.	.	.	.	.	.	8qqb/	.	.	.
4.ryy	4.r	.	4.r	.	4.r	.	4.r	.	4cc\	-to	4.r	4.r
.	.	.	.	.	.	.	.	.	8r	.	.	.
!	!	!	!	!	!LO:LB:g=original	!	!	!	!	!	!	!
=169	=169	=169	=169	=169	=169	=169	=169	=169	=169	=169	=169	=169
4.ryy	4ee\	.	4gg\	.	4c\	ſi-	4G\	ſi-	4ee\	ſi-	4cc\	4ee\
.	8dd\	.	8gg\	.	8B\	-cut	8G\	-cut	8dd\	-cut	8g\	8dd\
=170	=170	=170	=170	=170	=170	=170	=170	=170	=170	=170	=170	=170
4.ryy	4ee\	.	4gg\	.	4c\	e-	4G\	e-	4ee\	e-	4cc\	4ee\
.	8dd\	.	8gg\	.	8B\	-rat	8G\	-rat	8dd\	-rat	8g\	8dd\
!	!	!	!	!	!	!	!	!	!LO:LB:g=original	!	!LO:LB:g=original	!
=171	=171	=171	=171	=171	=171	=171	=171	=171	=171	=171	=171	=171
4.ryy	8ee\	.	8ccc\	.	8c\	in	8G\	in	8ee\	in	8cc\	8ee\
.	4cc\	.	4gg\	.	16C/LL	prin-	4c\	prin-	4ee\	prin-	4cc\	4ee\
.	.	.	.	.	16D/	.	.	.	.	.	.	.
.	.	.	.	.	16E/	.	.	.	.	.	.	.
.	.	.	.	.	16F/JJ	.	.	.	.	.	.	.
=172	=172	=172	=172	=172	=172	=172	=172	=172	=172	=172	=172	=172
!	!LO:SIC:o=:v:niejednoznaczny zapis łuku	!	!LO:SIC:o=:v:niejednoznaczny zapis łuku	!	!	!	!	!	!	!	!	!
!	!LO:TX:a:t=P:problem=mixed beam	!	!LO:TX:a:t=P:problem=mixed beam	!	!	!	!	!	!	!	!	!
4.ryy	(8cc\L	.	(8ee\L	.	16G\	-ci-	16c\	-ci-	16ee\	-ci-	8cc\L	8ee\L
.	.	.	.	.	16G\	-pi-	16c\	-pi-	16ee\	-pi-	.	.
.	8b\	.	8dd\	.	8G\	-o	8B\	-o	8dd\	-o	8g\J	8dd\J
.	8c/J)	.	8g/J)	.	8E\	et	8c\	et	8g\	et	8r	8r
=173	=173	=173	=173	=173	=173	=173	=173	=173	=173	=173	=173	=173
4.ryy	8c/L	.	8a/	.	8F\L	nunc	8c\L	nunc	4a\	nunc	4.r	4.r
!	!	!	!LO:TX:a:B:t=t	!	!	!	!	!	!	!	!	!
.	8f/	.	4b\	.	8D\J	.	8f\J	.	.	.	.	.
.	8d/J	.	.	.	8G\	et	8d\	et	8b\	et	.	.
=174	=174	=174	=174	=174	=174	=174	=174	=174	=174	=174	=174	=174
4.ryy	8e/L	.	8cc\	.	8E/L	ſem-	4e\	ſem-	4cc\	ſem-	4.r	4.r
!	!	!	!LO:TX:a:B:t=t	!	!	!	!	!	!	!	!	!
.	8g/	.	4dd\	.	8C/	.	.	.	.	.	.	.
.	8b/J	.	.	.	8BB/J	.	8B\	.	8dd\	.	.	.
!	!	!	!LO:LB:g=original	!	!	!	!	!	!	!	!	!
=175	=175	=175	=175	=175	=175	=175	=175	=175	=175	=175	=175	=175
4.ryy	8g/L	.	8ee\	.	8C/L	.	4G\	.	4ee\	.	4.r	4.r
!	!	!	!LO:TX:a:B:t=t	!	!	!	!	!	!	!	!	!
.	8cc/	.	4ff#X\	.	8AA/	.	.	.	.	.	.	.
.	8a/J	.	.	.	8D/J	.	8c\	.	8ff#X\	.	.	.
=176	=176	=176	=176	=176	=176	=176	=176	=176	=176	=176	=176	=176
!	!	!	!LO:SIC:o:s=:v:=8qff#	!	!	!	!	!	!LO:SIC:o:s=:v:=8qff#	!	!	!
.	.	.	8qqff/	.	.	.	8qqc/	.	8qqff/	.	.	.
4.ryy	8dd\L	.	4.gg\	.	8BB/L	.	4.B\	-per	4.gg\	-per	4.r	4.r
.	8cc\	.	.	.	8AA/	.	.	.	.	.	.	.
.	8b\J	.	.	.	8GG/J	-per	.	.	.	.	.	.
=177	=177	=177	=177	=177	=177	=177	=177	=177	=177	=177	=177	=177
4.ryy	8ff\	.	8ddd\	.	8G\L	et	8d\	et	8ff\	et	8dd\L	8ff\L
!	!LO:N:vis=4.	!	!	!	!	!	!	!	!	!	!	!
.	4dd\	.	4ff\	.	8A\J	.	4d\	in	4ff\	in	8dd\	8ff\
.	.	.	.	.	8B\	in	.	.	.	.	8dd\J	8ff\J
=178	=178	=178	=178	=178	=178	=178	=178	=178	=178	=178	=178	=178
4.ryy	8g/L	.	8ee\L	.	8c\	ſae-	8G/	ſae-	8ee\	ſae-	4cc\	4ee\
.	8f/	.	8bb\	.	8d\	-cu-	8F/	-cu-	8dd\	-cu-	.	.
.	8e/J	.	8ccc\J	.	8e\	-la	8E/	-la	8cc\	-la	8r	8r
!	!	!	!	!	!	!	!LO:LB:g=original	!	!	!	!	!LO:LB:g=original
=179	=179	=179	=179	=179	=179	=179	=179	=179	=179	=179	=179	=179
4.ryy	16ff\LL	.	(16ddd\LL	.	8G\L	ſae-	8d\	ſae-	8ff\	ſae-	8dd\L	8ff\L
.	16dd\JJ	.	16ff\JJ)	.	.	.	.	.	.	.	.	.
.	4dd\	.	4ff\	.	8A\J	.	4d\	-cu-	4ff\	-cu-	16dd\L	16ff\L
.	.	.	.	.	.	.	.	.	.	.	16dd\	16ff\
.	.	.	.	.	8B\	-cu-	.	.	.	.	16dd\	16ff\
.	.	.	.	.	.	.	.	.	.	.	16dd\JJ	16ff\JJ
=180	=180	=180	=180	=180	=180	=180	=180	=180	=180	=180	=180	=180
4.ryy	8cc\L	.	8ee\L	.	8c\L	-lo-	8c\L	-lo-	8ee\L	-lo-	4cc\	4ee\
.	8ff\	.	8bb\	.	8d\J	.	8B\J	.	8dd\J	.	.	.
.	8ee\J	.	8ccc\J	.	8e\	-rum	8c\	-rum	8ee\	-rum	8r	8r
=181	=181	=181	=181	=181	=181	=181	=181	=181	=181	=181	=181	=181
!	!	!	!	!	!LO:TX:a:t=P:problem=mixed beam	!	!	!	!	!	!	!
4.ryy	8g\L	.	8ee\L	.	8c\L	a-	8c\	a-	8ee\	a-	8cc\L	8ee\L
.	8b\	.	8dd\	.	8G\	.	4B\	.	4dd\	.	8g\	8dd\
.	8dd\J	.	8bb\J	.	8GG/J	.	.	.	.	.	8g\J	8dd\J
=182	=182	=182	=182	=182	=182	=182	=182	=182	=182	=182	=182	=182
4.ryy	4ee\	.	4ccc\	.	4C/	-men	4c\	-men	4ee\	-men	4cc\	4ee\
!	!LO:SIC:o=:v:kreska taktowa podwójna / dwie poziome kreski	!	!LO:SIC:o=:v:kreska taktowa podwójna / dwie poziome kreski	!	!	!	!LO:SIC:o=:v:kreska taktowa podwójna / dwie poziome kreski	!	!LO:SIC:o=:v:kreska taktowa podwójna / dwie poziome kreski	!	!LO:SIC:o=:v:kreska taktowa podwójna / dwie poziome kreski	!LO:SIC:o=:v:kreska taktowa podwójna / dwie poziome kreski
.	8r	.	8r	.	8r;	.	8r	.	8r	.	8r	8r
==	==	==	==	==	==	==	==	==	==	==	==	==
*-	*-	*-	*-	*-	*-	*-	*-	*-	*-	*-	*-	*-
!!!system-decoration: [(s1,s2)][(s3,s4,s5)][(s6,s7)]s8
!!!RDF**kern: > = above
!!!RDF**kern: < = below
!!!RDF**dynam: p = pia
!!!EED: Leszek Kubiak
!!!EEV: 2020-07-15
!!!ENC: Andrzej Kubiczek
!!!END: 2020-05-16
